(Project starwars)
(Created by Estlcam version 11 build 11.233)
(Machining time about 00:21:15 hours)

(Required tools:)
(Taper)
G21
G90
G94
M03 S12000
G00 Z5.0000


(No. 1: Engraving 149)
G00 X57.5555 Y39.1656
G00 Z0.5000
G01 Z0.0000 F2400 S12000
G01 Z-1.0000
G01 X60.7910 Y43.0399 F6000
G01 X65.7942 Y48.9865
G01 X69.5752 Y53.4916
G01 X76.9681 Y62.2969
G01 X83.6936 Y70.3159
G01 X86.8072 Y74.0345
G03 X84.9786 Y74.4261 I-4.8482 J-18.1756
G01 X84.9201 Y74.4322
G01 X84.8974 Y74.4296
G02 X71.9061 Y58.8976 I-6785.0687 J5661.9914
G02 X57.2142 Y41.3489 I-4065.1467 J3388.4369
G03 X56.3656 Y40.2298 I5.8441 J-5.3127
G03 X56.7100 Y39.2197 I0.5422 J-0.3789
G03 X57.5555 Y39.1656 I0.5500 J1.9607
G01 Z-1.5000 F2400
G02 X56.7100 Y39.2197 I-0.2956 J2.0148 F6000
G02 X56.3656 Y40.2298 I0.1979 J0.6312
G02 X57.7248 Y41.9587 I13.0906 J-8.8922
G01 X58.7870 Y43.2201
G01 X68.8670 Y55.2654
G01 X71.9061 Y58.8976
G01 X80.0523 Y68.6285
G01 X84.8807 Y74.3949
G01 X84.8974 Y74.4296
G02 X85.1873 Y74.3910 I-0.0104 J-1.1843
G01 X85.8606 Y74.2494
G01 X86.8072 Y74.0345
G01 X83.6936 Y70.3159
G01 X76.9681 Y62.2969
G01 X69.5752 Y53.4916
G03 X57.5555 Y39.1656 I2264.8069 J-1912.3930
G00 Z5.0000


(No. 2: Engraving 130)
G00 X57.7359 Y43.4904 Z5.0000
G00 Z0.5000
G01 Z0.0000 F2400
G01 Z-1.0000
G01 X64.2389 Y51.1490 F6000
G01 X64.9026 Y51.8703
G01 X69.2436 Y56.9154
G03 X69.8718 Y57.8377 I-3.1270 J2.8049
G03 X69.6194 Y58.7492 I-0.6832 J0.3016
G03 X68.3860 Y59.4402 I-1.9184 J-1.9783
G03 X67.2683 Y58.7924 I-0.2521 J-0.8530
G03 X67.5588 Y58.1854 I0.9381 J0.0760
G02 X68.0894 Y57.4754 I-1.8939 J-1.9686
G01 X68.1075 Y57.4163
G01 X68.1029 Y57.3790
G01 X68.0918 Y57.3692
G01 X68.0744 Y57.3659
G01 X67.8751
G01 X57.8024 Y45.5959
G02 X58.0289 Y45.0128 I-0.7065 J-0.6099
G02 X57.8458 Y44.6132 I-0.5199 J-0.0035
G01 X57.8236 Y44.6164
G02 X57.7874 Y44.8747 I0.4267 J0.1915
G03 X57.3080 Y45.5956 I-1.2050 J-0.2814
G03 X56.4864 Y46.0132 I-0.9994 J-0.9492
G03 X55.8159 Y45.3111 I0.0562 J-0.7248
G03 X56.0531 Y44.4993 I1.1758 J-0.0970
G03 X57.1262 Y43.5377 I2.2605 J1.4431
G03 X57.7359 Y43.4904 I0.4143 J1.3881
G01 Z-1.5000 F2400
G02 X56.6234 Y43.8602 I-0.1923 J1.2801 F6000
G02 X55.8139 Y45.0183 I1.4899 J1.9034
G02 X56.2165 Y45.9454 I0.8580 J0.1784
G02 X56.9910 Y45.8306 I0.2961 J-0.6726
G02 X57.7773 Y44.9541 I-0.8138 J-1.5210
G03 X57.8073 Y44.6436 I1.1480 J-0.0458
G01 X57.8236 Y44.6164
G01 X57.8458 Y44.6132
G03 X57.9611 Y45.2993 I-0.3827 J0.4171
G01 X57.8024 Y45.5959
G01 X67.8751 Y57.3659
G01 X68.0744
G01 X68.0918 Y57.3692
G01 X68.1029 Y57.3790
G01 X68.1075 Y57.4163
G03 X67.5588 Y58.1854 I-2.4150 J-1.1427
G02 X67.2692 Y58.6931 I0.8015 J0.7936
G02 X68.1442 Y59.4644 I0.8273 J-0.0565
G02 X69.3691 Y58.9534 I-0.1825 J-2.1610
G02 X69.9304 Y58.2572 I-0.5630 J-1.0282
G02 X69.6588 Y57.4794 I-1.0620 J-0.0655
G01 X69.2436 Y56.9154
G01 X64.9026 Y51.8703
G01 X64.2389 Y51.1490
G01 X57.7359 Y43.4904
G00 Z5.0000


(No. 3: Engraving 145)
G00 X57.4909 Y46.5262 Z5.0000
G00 Z0.5000
G01 Z0.0000 F2400
G01 Z-1.0000
G01 X57.5059 Y46.5402 F6000
G01 X57.5129 Y46.5607
G03 X57.1601 Y47.0539 I-1.0992 J-0.4135
G02 X56.3167 Y47.8153 I5.7213 J7.1858
G02 X56.1613 Y48.0823 I0.3136 J0.3612
G01 X56.1663 Y48.1155
G01 X56.1837 Y48.1416
G02 X56.3105 Y48.1756 I0.1135 J-0.1695
G02 X56.6325 Y47.9894 I-0.3619 J-0.9969
G03 X57.4947 Y47.3088 I180.8659 J228.2538
G03 X58.0075 Y47.0552 I0.6587 J0.6866
G01 X58.0291 Y47.0622
G01 X58.0435 Y47.0761
G03 X57.8914 Y47.4173 I-0.3829 J0.0338
G03 X56.4601 Y48.4650 I-3.1633 J-2.8200
G03 X55.8330 Y48.1788 I-0.1819 J-0.4315
G03 X56.1799 Y47.4227 I1.0829 J0.0391
G03 X57.4011 Y46.5260 I2.6165 J2.2837
G01 X57.4682 Y46.5194
G01 X57.4909 Y46.5262
G01 Z-1.5000 F2400
G01 X57.4682 Y46.5194 F6000
G02 X56.7569 Y46.9015 I0.5590 J1.8933
G02 X55.8737 Y47.8921 I1.4328 J2.1665
G02 X56.2571 Y48.4982 I0.3572 J0.1983
G02 X56.8887 Y48.2476 I-0.1776 J-1.3688
G02 X58.0304 Y47.2149 I-1.7524 J-3.0850
G02 X58.0435 Y47.0761 I-0.1021 J-0.0797
G01 X58.0291 Y47.0622
G01 X58.0075 Y47.0552
G02 X57.3498 Y47.4178 I0.4901 J1.6668
G03 X56.3553 Y48.1627 I-3.7501 J-3.9703
G01 X56.3105 Y48.1756
G03 X56.1837 Y48.1416 I-0.0240 J-0.1636
G01 X56.1663 Y48.1155
G03 X56.3167 Y47.8153 I0.3879 J0.0065
G03 X57.1601 Y47.0539 I18.9303 J20.1226
G02 X57.5123 Y46.5865 I-0.6543 J-0.8595
G01 X57.5129 Y46.5607
G01 X57.5059 Y46.5402
G01 X57.4909 Y46.5262
G00 Z5.0000


(No. 4: Engraving 156)
G00 X58.7463 Y47.9590 Z5.0000
G00 Z0.5000
G01 Z0.0000 F2400
G01 Z-1.0000
G01 X58.7635 Y47.9758 F6000
G01 X58.7699 Y47.9956
G03 X58.2767 Y48.6609 I-1.5328 J-0.6208
G02 X57.4960 Y49.5173 I2.0571 J2.6591
G02 X57.4620 Y49.6407 I0.1092 J0.0964
G01 X57.4726 Y49.6556
G01 X57.4915 Y49.6625
G02 X58.0313 Y49.3583 I-0.4350 J-1.4029
G03 X58.9820 Y48.6104 I5.3055 J5.7659
G03 X59.2595 Y48.4869 I0.3615 J0.4386
G01 X59.2817 Y48.4910
G01 X59.2958 Y48.5029
G01 X59.3023 Y48.5224
G03 X58.9750 Y49.0228 I-1.0095 J-0.3031
G03 X57.8528 Y49.9874 I-3.2754 J-2.6754
G03 X57.0813 Y49.3630 I-0.2348 J-0.4986
G03 X58.3072 Y48.1448 I3.4077 J2.2033
G03 X58.7214 Y47.9510 I0.5566 J0.6503
G01 X58.7463 Y47.9590
G01 Z-1.5000 F2400
G01 X58.7214 Y47.9510 F6000
G02 X58.1642 Y48.2476 I0.3510 J1.3311
G02 X57.1311 Y49.2673 I2.3088 J3.3724
G02 X57.1940 Y49.8365 I0.4576 J0.2375
G02 X57.9588 Y49.9256 I0.4224 J-0.2984
G02 X59.2795 Y48.6130 I-2.8550 J-4.1931
G01 X59.3015 Y48.5475
G01 X59.3023 Y48.5224
G01 X59.2958 Y48.5029
G01 X59.2817 Y48.4910
G01 X59.2595 Y48.4869
G02 X58.6948 Y48.8118 I0.5493 J1.6076
G03 X57.7516 Y49.5535 I-5.1195 J-5.5401
G03 X57.4915 Y49.6625 I-0.2938 J-0.3364
G01 X57.4726 Y49.6556
G01 X57.4620 Y49.6407
G03 X57.8529 Y49.0677 I1.1288 J0.3501
G02 X58.6189 Y48.2832 I-4.1211 J-4.7907
G02 X58.7699 Y47.9956 I-0.3674 J-0.3762
G01 X58.7635 Y47.9758
G01 X58.7463 Y47.9590
G00 Z5.0000


(No. 5: Engraving 164)
G00 X60.0402 Y49.4420 Z5.0000
G00 Z0.5000
G01 Z0.0000 F2400
G01 Z-1.0000
G03 X59.9121 Y49.7687 I-0.3863 J0.0370 F6000
G03 X59.0098 Y50.6684 I-11.3568 J-10.4878
G02 X58.7266 Y51.0767 I0.5240 J0.6659
G01 X58.7287 Y51.0981
G01 X58.7388 Y51.1128
G01 X58.7565 Y51.1205
G02 X59.4075 Y50.7534 I-0.5666 J-1.7655
G03 X60.3846 Y50.0362 I3.8693 J4.2475
G03 X60.6273 Y49.9844 I0.1727 J0.2147
G01 X60.6498 Y50.0039
G01 X60.6633 Y50.0335
G01 X60.6678 Y50.0733
G03 X60.4739 Y50.3122 I-0.7161 J-0.3830
G03 X59.0230 Y51.5160 I-5.5300 J-5.1888
G03 X58.3834 Y51.0102 I-0.0920 J-0.5409
G03 X58.7246 Y50.3084 I0.9373 J0.0219
G03 X59.7500 Y49.4763 I2.8368 J2.4478
G03 X59.9997 Y49.4120 I0.2042 J0.2763
G01 X60.0231 Y49.4234
G01 X60.0402 Y49.4420
G01 Z-1.5000 F2400
G01 X60.0231 Y49.4234 F6000
G01 X59.9997 Y49.4120
G02 X59.5097 Y49.6210 I0.1051 J0.9254
G02 X58.4592 Y50.6621 I1.7419 J2.8080
G02 X58.9514 Y51.5326 I0.5037 J0.2896
G02 X59.2673 Y51.3660 I-0.1493 J-0.6659
G02 X60.6542 Y50.1058 I-5.2409 J-7.1616
G01 X60.6678 Y50.0733
G01 X60.6633 Y50.0335
G01 X60.6498 Y50.0039
G01 X60.6273 Y49.9844
G02 X60.3846 Y50.0362 I-0.0700 J0.2665
G02 X59.4075 Y50.7534 I3.7833 J6.1788
G03 X58.8130 Y51.1158 I-1.2958 J-1.4568
G01 X58.7565 Y51.1205
G01 X58.7388 Y51.1128
G01 X58.7287 Y51.0981
G03 X59.1312 Y50.5434 I1.1001 J0.3748
G02 X59.9121 Y49.7687 I-3.0568 J-3.8624
G02 X60.0492 Y49.4660 I-0.3247 J-0.3296
G01 X60.0402 Y49.4420
G00 Z5.0000


(No. 6: Engraving 166)
G00 X61.3886 Y51.0439 Z5.0000
G00 Z0.5000
G01 Z0.0000 F2400
G01 Z-1.0000
G03 X61.1645 Y51.3468 I-0.7588 J-0.3271 F6000
G02 X60.2212 Y52.2176 I141.5441 J154.2658
G02 X59.9772 Y52.5623 I0.6106 J0.6910
G01 X59.9778 Y52.5841
G01 X59.9865 Y52.6000
G01 X60.0030 Y52.6092
G02 X60.5675 Y52.3138 I-0.3667 J-1.3879
G03 X61.4588 Y51.6526 I3.6271 J3.9578
G03 X61.7716 Y51.5573 I0.2807 J0.3603
G01 X61.7913 Y51.5696
G01 X61.8060 Y51.5927
G03 X61.5461 Y52.0123 I-0.6747 J-0.1276
G03 X60.0773 Y53.0055 I-2.8093 J-2.5717
G03 X59.6616 Y52.3870 I-0.0548 J-0.4121
G03 X60.5526 Y51.3171 I2.4048 J1.0967
G03 X61.1780 Y50.9006 I1.4831 J1.5492
G03 X61.3196 Y50.8932 I0.0799 J0.1707
G01 X61.3498 Y50.9136
G03 X61.3886 Y51.0439 I-0.1584 J0.1182
G01 Z-1.5000 F2400
G02 X61.3498 Y50.9136 I-0.1652 J-0.0216 F6000
G01 X61.3196 Y50.8932
G02 X60.9602 Y51.0108 I-0.0468 J0.4652
G02 X59.7668 Y52.1634 I2.1360 J3.4054
G02 X59.6426 Y52.7557 I0.5226 J0.4188
G02 X60.3192 Y52.9202 I0.4057 J-0.1949
G02 X61.7910 Y51.6956 I-1.6633 J-3.4958
G02 X61.8060 Y51.5927 I-0.1108 J-0.0687
G01 X61.7913 Y51.5696
G01 X61.7716 Y51.5573
G02 X61.3269 Y51.7306 I0.0506 J0.7870
G02 X60.5675 Y52.3138 I9.2071 J12.7755
G03 X60.0269 Y52.6115 I-0.8842 J-0.9663
G01 X60.0030 Y52.6092
G01 X59.9865 Y52.6000
G01 X59.9778 Y52.5841
G01 X59.9772 Y52.5623
G03 X60.6258 Y51.8428 I2.0331 J1.1808
G02 X61.3731 Y51.0900 I-2.2134 J-2.9445
G01 X61.3886 Y51.0439
G00 Z5.0000


(No. 7: Engraving 175)
G00 X62.6395 Y52.3978 Z5.0000
G00 Z0.5000
G01 Z0.0000 F2400
G01 Z-1.0000
G01 X62.6500 Y52.4864 F6000
G03 X62.4292 Y52.7929 I-0.7752 J-0.3260
G03 X61.4629 Y53.7064 I-160.5881 J-168.8879
G02 X61.2618 Y54.0089 I0.4273 J0.5022
G01 X61.2651 Y54.0255
G01 X61.2745 Y54.0373
G01 X61.3110 Y54.0458
G02 X62.1737 Y53.5031 I-0.9311 J-2.4370
G03 X62.8915 Y53.0313 I1.8429 J2.0216
G01 X62.9721 Y53.0082
G01 X63.0303 Y53.0069
G01 X63.0507 Y53.0142
G01 X63.0653 Y53.0267
G01 X63.0766 Y53.0666
G03 X62.7535 Y53.5392 I-1.0811 J-0.3923
G03 X61.6025 Y54.3791 I-2.5489 J-2.2841
G03 X60.9885 Y54.2880 I-0.2515 J-0.4193
G03 X61.0270 Y53.5599 I0.4730 J-0.3401
G03 X62.4971 Y52.3480 I4.4870 J3.9456
G01 X62.5412 Y52.3372
G01 X62.5770 Y52.3371
G01 X62.6048 Y52.3473
G01 X62.6255 Y52.3677
G01 X62.6395 Y52.3978
G01 Z-1.5000 F2400
G01 X62.6255 Y52.3677 F6000
G01 X62.6048 Y52.3473
G01 X62.5770 Y52.3371
G02 X62.1292 Y52.5717 I0.1191 J0.7718
G02 X61.1308 Y53.4298 I3.7458 J5.3682
G02 X60.8832 Y54.0073 I0.4529 J0.5360
G02 X61.4877 Y54.4139 I0.4396 J-0.0008
G02 X62.7535 Y53.5392 I-1.1168 J-2.9690
G02 X63.0766 Y53.0666 I-0.5491 J-0.7221
G01 X63.0653 Y53.0267
G01 X63.0507 Y53.0142
G01 X63.0303 Y53.0069
G02 X62.5212 Y53.2397 I0.1771 J1.0604
G03 X61.5563 Y53.9466 I-5.1651 J-6.0386
G03 X61.3110 Y54.0458 I-0.3236 J-0.4468
G01 X61.2745 Y54.0373
G01 X61.2651 Y54.0255
G01 X61.2618 Y54.0089
G03 X61.5797 Y53.5862 I1.0352 J0.4479
G02 X62.5907 Y52.6017 I-5.1875 J-6.3385
G01 X62.6347 Y52.5329
G01 X62.6500 Y52.4864
G01 X62.6395 Y52.3978
G00 Z5.0000


(No. 8: Engraving 188)
G00 X63.9114 Y53.9280 Z5.0000
G00 Z0.5000
G01 Z0.0000 F2400
G01 Z-1.0000
G03 X63.6906 Y54.2345 I-0.7752 J-0.3260 F6000
G03 X62.8417 Y55.0282 I-22.0645 J-22.7462
G02 X62.5384 Y55.4059 I0.9376 J1.0636
G01 X62.5275 Y55.4548
G01 X62.5313 Y55.4720
G01 X62.5411 Y55.4843
G01 X62.5785 Y55.4939
G02 X63.4444 Y54.9564 I-0.8557 J-2.3446
G03 X64.2709 Y54.4642 I1.4433 J1.4835
G01 X64.3250 Y54.4637
G01 X64.3595 Y54.4799
G01 X64.3732 Y54.5127
G03 X64.0868 Y54.9181 I-0.8443 J-0.2926
G03 X62.8224 Y55.9821 I-6.7659 J-6.7571
G03 X62.3831 Y55.9271 I-0.1916 J-0.2512
G03 X62.2539 Y55.1119 I0.2937 J-0.4644
G03 X63.4176 Y54.0192 I3.9687 J3.0608
G03 X63.8141 Y53.7811 I0.6688 J0.6645
G01 X63.8469 Y53.7810
G01 X63.8721 Y53.7912
G03 X63.9114 Y53.9280 I-0.1232 J0.1095
G01 Z-1.5000 F2400
G02 X63.8721 Y53.7912 I-0.1291 J-0.0369 F6000
G01 X63.8469 Y53.7810
G02 X63.4176 Y54.0192 I0.1295 J0.7392
G02 X62.4093 Y54.9067 I3.6619 J5.1772
G02 X62.1334 Y55.5528 I0.5139 J0.6014
G02 X62.6316 Y56.0469 I0.6677 J-0.1749
G02 X63.0000 Y55.8633 I-0.0987 J-0.6596
G02 X64.1954 Y54.8056 I-7.5594 J-9.7473
G02 X64.3732 Y54.5127 I-0.3498 J-0.4127
G01 X64.3595 Y54.4799
G01 X64.3250 Y54.4637
G02 X63.6019 Y54.8323 I0.3155 J1.5123
G03 X62.6389 Y55.4831 I-2.3902 J-2.4991
G01 X62.5785 Y55.4939
G01 X62.5411 Y55.4843
G01 X62.5313 Y55.4720
G01 X62.5275 Y55.4548
G03 X62.9862 Y54.8910 I1.5100 J0.7600
G02 X63.8961 Y53.9746 I-2.5476 J-3.4395
G01 X63.9114 Y53.9280
G00 Z5.0000


(No. 9: Engraving 196)
G00 X65.0674 Y55.3698 Z5.0000
G00 Z0.5000
G01 Z0.0000 F2400
G01 Z-1.0000
G01 X65.0859 Y55.3887 F6000
G03 X64.9392 Y55.7269 I-0.4403 J0.0100
G03 X64.0100 Y56.6864 I-17.8372 J-16.3454
G02 X63.7677 Y57.0684 I0.6590 J0.6857
G01 X63.7695 Y57.0930
G01 X63.7796 Y57.1110
G01 X63.7972 Y57.1219
G02 X64.1948 Y56.9347 I-0.0898 J-0.7064
G02 X65.0392 Y56.2008 I-32.1399 J-37.8271
G03 X65.5281 Y55.9238 I0.8609 J0.9497
G03 X65.6645 Y55.9367 I0.0550 J0.1462
G01 X65.6905 Y55.9651
G01 X65.7059 Y56.0059
G01 X65.7102 Y56.0595
G03 X65.5277 Y56.2909 I-0.6279 J-0.3075
G03 X64.0725 Y57.4641 I-5.6461 J-5.5139
G03 X63.4184 Y57.0638 I-0.0854 J-0.5951
G03 X63.5241 Y56.5478 I0.4215 J-0.1825
G03 X64.9684 Y55.3637 I3.0437 J2.2395
G03 X65.0674 Y55.3698 I0.0428 J0.1118
G01 Z-1.5000 F2400
G02 X64.6226 Y55.5382 I-0.0092 J0.6476 F6000
G02 X63.3955 Y56.7651 I1.9836 J3.2108
G02 X64.0130 Y57.4784 I0.6199 J0.0873
G02 X64.3312 Y57.3037 I-0.1843 J-0.7129
G02 X65.6971 Y56.0935 I-4.1542 J-6.0646
G01 X65.7102 Y56.0595
G01 X65.7059 Y56.0059
G01 X65.6905 Y55.9651
G01 X65.6645 Y55.9367
G02 X65.2293 Y56.0659 I-0.0844 J0.5133
G02 X64.3231 Y56.8350 I9.1998 J11.7578
G03 X63.8213 Y57.1258 I-0.7426 J-0.7030
G01 X63.7972 Y57.1219
G01 X63.7796 Y57.1110
G01 X63.7695 Y57.0930
G01 X63.7677 Y57.0684
G03 X64.2680 Y56.4166 I1.8754 J0.9215
G02 X65.0697 Y55.5172 I-1.9759 J-2.5684
G02 X65.0859 Y55.3887 I-0.0956 J-0.0773
G01 X65.0674 Y55.3698
G00 Z5.0000


(No. 10: Engraving 216)
G00 X66.4237 Y56.8857 Z5.0000
G00 Z0.5000
G01 Z0.0000 F2400
G01 Z-1.0000
G01 X66.4354 Y56.9605 F6000
G03 X66.2400 Y57.2262 I-0.6969 J-0.3078
G02 X65.4164 Y58.0193 I31.0537 J33.0715
G02 X65.2103 Y58.3390 I0.5330 J0.5699
G01 X65.2120 Y58.3597
G01 X65.2208 Y58.3750
G01 X65.2365 Y58.3842
G02 X65.7345 Y58.1317 I-0.2516 J-1.1138
G03 X66.5249 Y57.5402 I2.7597 J2.8634
G03 X66.8031 Y57.4881 I0.1917 J0.2551
G01 X66.8247 Y57.5040
G01 X66.8442 Y57.5320
G03 X66.7128 Y57.8542 I-0.3461 J0.0468
G03 X65.2078 Y58.8885 I-2.7793 J-2.4319
G03 X64.6933 Y58.2203 I-0.1287 J-0.4332
G03 X65.4213 Y57.4110 I2.0559 J1.1174
G03 X66.2238 Y56.8716 I3.3151 J4.0660
G03 X66.3872 Y56.8448 I0.1066 J0.1384
G01 X66.4088 Y56.8609
G01 X66.4237 Y56.8857
G01 Z-1.5000 F2400
G01 X66.4088 Y56.8609 F6000
G01 X66.3872 Y56.8448
G02 X66.0888 Y56.9430 I-0.0590 J0.3229
G02 X64.8190 Y58.0020 I2.1909 J3.9177
G02 X64.6477 Y58.5962 I0.4829 J0.4611
G02 X65.3470 Y58.8435 I0.4540 J-0.1716
G02 X66.7925 Y57.7439 I-1.4331 J-3.3840
G02 X66.8442 Y57.5320 I-0.1668 J-0.1530
G02 X66.5249 Y57.5402 I-0.1550 J0.1840
G02 X65.7345 Y58.1317 I2.6219 J4.3269
G03 X65.2584 Y58.3873 I-0.7153 J-0.7613
G01 X65.2365 Y58.3842
G01 X65.2208 Y58.3750
G01 X65.2120 Y58.3597
G01 X65.2103 Y58.3390
G03 X65.7686 Y57.6752 I1.7332 J0.8911
G02 X66.4220 Y56.9994 I-2.1927 J-2.7738
G01 X66.4354 Y56.9605
G01 X66.4237 Y56.8857
G00 Z5.0000


(No. 11: Engraving 210)
G00 X62.7161 Y56.3146 Z5.0000
G00 Z0.5000
G01 Z0.0000 F2400
G01 Z-1.0000
G01 X62.9343 Y56.3053 F6000
G01 X62.9741 Y56.3105
G01 X63.0073 Y56.3348
G03 X63.0356 Y56.9528 I-0.9169 J0.3516
G02 X63.4349 Y57.6357 I0.6794 J0.0610
G02 X64.0837 Y57.8213 I0.5349 J-0.6431
G03 X64.2570 Y57.7854 I0.1110 J0.0996
G01 X64.2680 Y57.8004
G01 X64.2718 Y57.8214
G01 Y57.9377
G03 X62.6190 Y60.2404 I-20.2697 J-12.8056
G03 X61.7453 Y61.1130 I-3.5972 J-2.7279
G03 X61.4839 Y61.2216 I-0.2744 J-0.2917
G03 X61.3886 Y61.0668 I0.0252 J-0.1222
G02 X60.8851 Y60.3425 I-1.6226 J0.5908
G03 X60.3024 Y59.7792 I3.2681 J-3.9640
G03 X60.2987 Y59.4557 I0.2390 J-0.1645
G02 X60.7753 Y58.7292 I-51.3029 J-34.1726
G02 X60.7867 Y58.6306 I-0.1046 J-0.0621
G01 X60.7723 Y58.6072
G02 X60.3772 Y58.4635 I-1.5454 J3.6346
G01 X60.3356 Y58.4417
G01 X60.3060 Y58.4161
G01 X60.2889 Y58.3854
G03 X60.4187 Y58.1100 I0.3267 J-0.0143
G03 X62.1882 Y56.2847 I37.7804 J34.8552
G01 X62.4642 Y56.3061
G01 X62.7161 Y56.3146
G01 Z-1.5000 F2400
G01 X62.4642 Y56.3061 F6000
G01 X62.1882 Y56.2847
G01 X61.1429 Y57.3410
G02 X60.3209 Y58.2497 I2.7100 J3.2778
G02 X60.2889 Y58.3854 I0.1261 J0.1013
G01 X60.3060 Y58.4161
G02 X60.4933 Y58.5008 I0.2433 J-0.2886
G01 X60.7161 Y58.5690
G01 X60.7723 Y58.6072
G01 X60.7867 Y58.6306
G03 X60.7224 Y58.8280 I-0.2259 J0.0355
G02 X60.2713 Y59.5157 I3.5406 J2.8143
G02 X60.4002 Y59.8973 I0.3234 J0.1034
G03 X61.1102 Y60.5836 I-4.0895 J4.9410
G03 X61.3886 Y61.0668 I-0.6419 J0.6917
G02 X61.4839 Y61.2216 I0.1115 J0.0380
G02 X61.9936 Y60.9109 I-0.2669 J-1.0114
G02 X63.3432 Y59.2810 I-7.1432 J-7.2886
G01 X64.2718 Y57.9377
G01 Y57.8214
G01 X64.2680 Y57.8004
G01 X64.2570 Y57.7854
G02 X64.0365 Y57.8385 I-0.0502 J0.2757
G03 X63.0848 Y57.2879 I0.0806 J-1.2372
G03 X63.0641 Y56.6973 I1.1144 J-0.3348
G02 X63.0073 Y56.3348 I-0.4809 J-0.1104
G01 X62.9741 Y56.3105
G01 X62.9343 Y56.3053
G01 X62.7161 Y56.3146
G00 Z5.0000


(No. 12: Engraving 235)
G00 X59.6315 Y59.8335 Z5.0000
G00 Z0.5000
G01 Z0.0000 F2400
G01 Z-1.0000
G03 X60.5466 Y60.7272 I-4.1856 J5.2012 F6000
G03 X60.8545 Y61.6130 I-1.1516 J0.8967
G03 X60.8480 Y62.8160 I-5.4556 J0.5721
G01 X58.4153 Y60.7256
G03 X58.0854 Y60.3968 I0.4344 J-0.7657
G03 X58.2303 Y59.9652 I0.4931 J-0.0746
G03 X58.8116 Y59.3906 I1.5016 J0.9377
G01 X58.8736 Y59.3637
G01 X58.9239 Y59.3553
G03 X59.6315 Y59.8335 I-0.9962 J2.2365
G01 Z-1.5000 F2400
G02 X58.9836 Y59.3725 I-2.1909 J2.3929 F6000
G01 X58.9239 Y59.3553
G02 X58.2303 Y59.9652 I0.4925 J1.2595
G02 X58.0683 Y60.3314 I0.4433 J0.4151
G02 X58.1837 Y60.5197 I0.3091 J-0.0600
G01 X58.4153 Y60.7256
G01 X60.8480 Y62.8160
G02 X60.7988 Y61.2244 I-5.3713 J-0.6305
G02 X60.2084 Y60.3560 I-1.8672 J0.6345
G01 X59.9734 Y60.1335
G01 X59.6315 Y59.8335
G00 Z5.0000


(No. 13: Engraving 219)
G00 X58.2093 Y58.0126 Z5.0000
G00 Z0.5000
G01 Z0.0000 F2400
G01 Z-1.0000
G03 X59.9488 Y58.7440 I-11.8229 J30.5516 F6000
G01 X60.0101 Y58.7882
G01 X60.0447 Y58.8341
G01 X60.0538 Y58.8843
G03 X59.7431 Y59.2444 I-0.5505 J-0.1609
G01 X59.6769 Y59.2439
G03 X59.2747 Y58.9487 I0.4303 J-1.0079
G02 X58.9069 Y58.6804 I-0.5989 J0.4349
G02 X58.5498 Y58.8858 I0.0174 J0.4434
G03 X57.5938 Y59.9406 I-10.8309 J-8.8558
G03 X57.1826 Y59.8975 I-0.1892 J-0.1783
G03 X56.8041 Y59.4867 I1.2791 J-1.5577
G03 X56.9147 Y59.0777 I0.3850 J-0.1153
G03 X57.8623 Y57.9738 I6.4443 J4.5729
G01 X57.9167 Y57.9333
G01 X57.9499 Y57.9212
G01 X58.0404 Y57.9487
G01 X58.2093 Y58.0126
G01 Z-1.5000 F2400
G01 X58.0404 Y57.9487 F6000
G01 X57.9499 Y57.9212
G02 X57.7015 Y58.1277 I0.3310 J0.6509
G02 X56.8239 Y59.2233 I6.4533 J6.0684
G02 X56.9228 Y59.6416 I0.2646 J0.1582
G02 X57.3381 Y60.0082 I1.3467 J-1.1068
G02 X57.7321 Y59.8109 I0.0484 J-0.3954
G03 X58.6898 Y58.7569 I21.3060 J18.3980
G03 X59.1287 Y58.8144 I0.1958 J0.2095
G02 X59.6019 Y59.2151 I1.5826 J-1.3895
G01 X59.6769 Y59.2439
G01 X59.7431 Y59.2444
G02 X60.0538 Y58.8843 I-0.2507 J-0.5303
G01 X60.0447 Y58.8341
G02 X59.7413 Y58.6506 I-0.4191 J0.3503
G03 X58.2093 Y58.0126 I148.7731 J-359.4425
G00 Z5.0000


(No. 14: Engraving 243)
G00 X56.6133 Y59.8918 Z5.0000
G00 Z0.5000
G01 Z0.0000 F2400
G01 Z-1.0000
G01 X60.6678 Y63.3545 F6000
G01 Y63.5287
G01 X60.6553 Y63.5917
G01 X60.6212 Y63.6342
G03 X60.3506 Y63.5829 I-0.0942 J-0.2424
G01 X56.3430 Y60.1720
G01 Y60.0304
G01 X56.3537 Y59.9755
G01 X56.3827 Y59.9308
G01 X56.4257 Y59.9009
G01 X56.4781 Y59.8903
G01 X56.6133 Y59.8918
G01 Z-1.5000 F2400
G01 X56.4781 Y59.8903 F6000
G01 X56.4257 Y59.9009
G01 X56.3827 Y59.9308
G01 X56.3537 Y59.9755
G01 X56.3430 Y60.0304
G01 Y60.1720
G01 X60.3506 Y63.5829
G02 X60.5977 Y63.6466 I0.1928 J-0.2368
G01 X60.6212 Y63.6342
G01 X60.6553 Y63.5917
G01 X60.6678 Y63.5287
G01 Y63.3545
G01 X56.6133 Y59.8918
G00 Z5.0000


(No. 15: Engraving 232)
G00 X55.9826 Y59.5155 Z5.0000
G00 Z0.5000
G01 Z0.0000 F2400
G01 Z-1.0000
G03 X55.0221 Y60.2400 I-0.9786 J-0.2985 F6000
G03 X54.4925 Y60.1215 I-0.1421 J-0.6079
G01 X54.4542 Y60.0744
G01 X54.4460 Y60.0337
G03 X54.8758 Y59.6828 I0.7747 J0.5105
G03 X55.7801 Y59.3626 I1.6703 J3.2801
G03 X55.9826 Y59.5155 I0.0593 J0.1320
G01 Z-1.5000 F2400
G02 X55.7801 Y59.3626 I-0.1483 J-0.0140 F6000
G02 X54.5718 Y59.8700 I0.7157 J3.3971
G02 X54.4460 Y60.0337 I0.1346 J0.2336
G01 X54.4542 Y60.0744
G02 X55.0221 Y60.2400 I0.4346 J-0.4339
G02 X55.9826 Y59.5155 I-0.0216 J-1.0276
G00 Z5.0000


(No. 16: Engraving 226)
G00 X55.3178 Y58.5475 Z5.0000
G00 Z0.5000
G01 Z0.0000 F2400
G01 Z-1.0000
G03 X55.6189 Y58.7950 I-0.2703 J0.6358 F6000
G01 X55.6290 Y58.8242
G01 X55.6286 Y58.8492
G01 X55.6170 Y58.8689
G03 X54.3949 Y59.3969 I-3.3563 J-6.0899
G01 X54.3071 Y59.4105
G01 X54.2458 Y59.4033
G01 X54.2069 Y59.3756
G03 X54.3575 Y58.9272 I0.4189 J-0.1088
G03 X55.0510 Y58.4682 I1.3316 J1.2583
G03 X55.3178 Y58.5475 I0.0069 J0.4652
G01 Z-1.5000 F2400
G02 X54.7369 Y58.6204 I-0.2447 J0.4009 F6000
G02 X54.1887 Y59.2029 I0.5460 J1.0628
G02 X54.2069 Y59.3756 I0.2028 J0.0659
G01 X54.2458 Y59.4033
G02 X54.8563 Y59.2299 I0.0290 J-1.0593
G02 X55.6170 Y58.8689 I-1.0273 J-3.1464
G01 X55.6286 Y58.8492
G02 X55.3178 Y58.5475 I-0.4805 J0.1841
G00 Z5.0000


(No. 17: Engraving 208)
G00 X54.7174 Y57.0860 Z5.0000
G00 Z0.5000
G01 Z0.0000 F2400
G01 Z-1.0000
G03 X55.1510 Y57.8900 I-4.2229 J2.7965 F6000
G03 X55.1659 Y58.0363 I-0.1234 J0.0864
G03 X54.8783 Y58.0924 I-0.2210 J-0.3674
G02 X54.0991 Y58.4492 I0.3760 J1.8500
G03 X53.8470 Y58.5080 I-0.1654 J-0.1396
G03 X53.7169 Y58.3423 I0.2391 J-0.3218
G03 X53.3184 Y57.3027 I3.7955 J-2.0511
G01 X53.3222 Y57.2837
G03 X54.3482 Y56.6692 I5.3140 J7.7088
G01 X54.4113 Y56.6451
G03 X54.7174 Y57.0860 I-0.9015 J0.9525
G01 Z-1.5000 F2400
G02 X54.4113 Y56.6451 I-1.2075 J0.5115 F6000
G02 X53.8589 Y56.9510 I1.4099 J3.1986
G01 X53.3222 Y57.2837
G01 X53.3184 Y57.3027
G02 X53.8147 Y58.4837 I4.4075 J-1.1574
G02 X54.0991 Y58.4492 I0.1219 J-0.1846
G03 X55.1256 Y58.0688 I1.0554 J1.2725
G01 X55.1497 Y58.0552
G01 X55.1659 Y58.0363
G02 X55.0945 Y57.7627 I-0.2828 J-0.0723
G01 X54.8797 Y57.3659
G01 X54.7174 Y57.0860
G00 Z5.0000


(No. 18: Engraving 198)
G00 X53.7310 Y55.5537 Z5.0000
G00 Z0.5000
G01 Z0.0000 F2400
G01 Z-1.0000
G03 X53.9742 Y56.2499 I-0.4362 J0.5430 F6000
G03 X53.1010 Y56.5560 I-0.6090 J-0.3386
G03 X52.9231 Y56.0201 I0.7321 J-0.5405
G03 X52.9460 Y55.6022 I0.7707 J-0.1674
G01 X52.9674 Y55.5739
G02 X53.3687 Y55.4555 I-0.6207 J-2.8429
G03 X53.7310 Y55.5537 I0.0554 J0.5129
G01 Z-1.5000 F2400
G02 X53.1197 Y55.5363 I-0.3182 J0.4345 F6000
G01 X52.9945 Y55.5639
G01 X52.9674 Y55.5739
G02 X52.9494 Y56.1954 I0.9823 J0.3394
G02 X53.1010 Y56.5560 I0.5213 J-0.0069
G02 X53.9936 Y56.1900 I0.2610 J-0.6350
G02 X53.7310 Y55.5537 I-0.7899 J-0.0463
G00 Z5.0000


(No. 19: Engraving 178)
G00 X53.1430 Y53.8970 Z5.0000
G00 Z0.5000
G01 Z0.0000 F2400
G01 Z-1.0000
G03 X53.4658 Y54.7664 I-3.9884 J1.9755 F6000
G03 X53.3010 Y54.9957 I-0.1625 J0.0571
G02 X52.6847 Y55.3390 I0.5256 J1.6687
G03 X52.4005 Y55.2129 I-0.0879 J-0.1851
G03 X51.9385 Y53.7880 I4.0324 J-2.0948
G03 X52.2876 Y53.1331 I1.2492 J0.2453
G03 X52.5809 Y52.8665 I0.5599 J0.3215
G03 X52.7923 Y53.1669 I-0.5016 J0.5776
G01 X52.9595 Y53.4952
G01 X53.1430 Y53.8970
G01 Z-1.5000 F2400
G02 X52.6126 Y52.8866 I-4.3795 J1.6542 F6000
G01 X52.5809 Y52.8665
G02 X51.9543 Y53.6682 I1.1015 J1.5067
G02 X52.1301 Y54.5551 I1.9390 J0.0764
G02 X52.4395 Y55.2697 I2.5132 J-0.6639
G02 X52.7323 Y55.3098 I0.1615 J-0.0904
G03 X53.4152 Y54.9518 I1.0878 J1.2448
G02 X53.4337 Y54.6293 I-0.2344 J-0.1752
G02 X53.1430 Y53.8970 I-8.4416 J2.9274
G00 Z5.0000


(No. 20: Engraving 1809)
G00 X51.9374 Y51.9038 Z5.0000
G00 Z0.5000
G01 Z0.0000 F2400
G01 Z-1.0000
G01 X52.0893 Y52.0599 F6000
G01 X52.1359 Y52.1135
G01 X52.1582 Y52.1772
G03 X51.8626 Y52.7415 I-1.0461 J-0.1884
G03 X51.2287 Y53.2994 I-1.0550 J-0.5597
G01 X51.1622 Y53.2880
G01 X50.9158 Y53.0595
G01 X50.8230 Y53.1273
G01 X50.6994 Y53.1910
G01 X50.5673 Y53.0816
G01 X50.4353 Y52.9723
G01 X50.4130 Y52.9086
G03 X50.5043 Y52.6299 I0.5143 J0.0142
G01 X51.5015 Y51.4704
G01 X51.5872 Y51.4256
G03 X51.9162 Y51.5360 I0.0278 J0.4626
G01 X52.0386 Y51.6794
G01 X52.0200 Y51.8009
G01 X51.9374 Y51.9038
G01 Z-1.5000 F2400
G01 X52.0200 Y51.8009 F6000
G01 X52.0386 Y51.6794
G01 X51.9162 Y51.5360
G02 X51.5872 Y51.4256 I-0.3343 J0.4503
G01 X51.5015 Y51.4704
G01 X50.5043 Y52.6299
G02 X50.4130 Y52.9086 I0.3163 J0.2579
G01 X50.4353 Y52.9723
G01 X50.5673 Y53.0816
G01 X50.6994 Y53.1910
G01 X50.8230 Y53.1273
G01 X50.9158 Y53.0595
G01 X51.1622 Y53.2880
G01 X51.2287 Y53.2994
G02 X51.7361 Y52.9141 I-0.3595 J-1.0003
G02 X52.1249 Y52.3457 I-2.6643 J-2.2395
G01 X52.1549 Y52.2537
G01 X52.1582 Y52.1772
G01 X52.1359 Y52.1135
G01 X52.0893 Y52.0599
G01 X51.9374 Y51.9038
G00 Z5.0000


(No. 21: Engraving 1808)
G00 X49.3267 Y52.4845 Z5.0000
G00 Z0.5000
G01 Z0.0000 F2400
G01 Z-1.0000
G01 X51.4188 Y50.2122 F6000
G01 X51.6864 Y50.4954
G01 X49.3665 Y53.0196
G01 X49.0732 Y52.7724
G01 X49.3267 Y52.4845
G01 Z-1.5000 F2400
G01 X49.0732 Y52.7724 F6000
G01 X49.3665 Y53.0196
G01 X51.6864 Y50.4954
G01 X51.4188 Y50.2122
G01 X49.3267 Y52.4845
G00 Z5.0000


(No. 22: Engraving 187)
G00 X49.7183 Y53.8766 Z5.0000
G00 Z0.5000
G01 Z0.0000 F2400
G01 Z-1.0000
G02 X49.9222 Y54.0414 I0.2104 J-0.0518 F6000
G02 X50.2864 Y53.8355 I-0.9181 J-2.0488
G03 X50.6449 Y53.9358 I0.0968 J0.3447
G02 X51.2378 Y54.2693 I0.7202 J-0.5865
G01 X51.2880 Y54.2650
G01 X51.5039 Y54.2124
G01 X53.0994 Y57.8063
G01 Y57.9450
G01 X53.0950 Y57.9651
G01 X53.0823 Y57.9799
G03 X52.5758 Y57.8781 I-0.0690 J-0.9674
G03 X50.1114 Y56.3973 I3.1258 J-7.9930
G03 X49.8187 Y55.9578 I0.5320 J-0.6716
G02 X49.6011 Y55.1814 I-0.9142 J-0.1625
G03 X49.5787 Y54.8355 I0.2723 J-0.1914
G02 X49.2147 Y54.2976 I-0.8260 J0.1669
G03 X49.0673 Y54.0455 I0.2106 J-0.2922
G01 X49.0834 Y53.9987
G03 X49.6032 Y53.7883 I0.4490 J0.3620
G01 X49.6629 Y53.8225
G01 X49.7183 Y53.8766
G01 Z-1.5000 F2400
G02 X49.2845 Y53.8491 I-0.2321 J0.2259 F6000
G02 X49.0834 Y53.9987 I0.1369 J0.3939
G01 X49.0673 Y54.0455
G02 X49.3066 Y54.3849 I0.5661 J-0.1451
G03 X49.5787 Y54.8355 I-0.3813 J0.5376
G02 X49.6749 Y55.2928 I0.3687 J0.1612
G03 X49.8187 Y55.9578 I-0.7404 J0.5082
G02 X50.2625 Y56.5329 I1.1479 J-0.4269
G02 X52.8506 Y57.9687 I5.4186 J-6.7174
G02 X53.0823 Y57.9799 I0.1281 J-0.2462
G01 X53.0950 Y57.9651
G01 X53.0994 Y57.9450
G01 Y57.8063
G01 X51.5039 Y54.2124
G03 X50.8845 Y54.1282 I-0.2402 J-0.5534
G02 X50.4881 Y53.8378 I-1.4184 J1.5205
G02 X50.1455 Y53.9260 I-0.1044 J0.3043
G03 X49.8782 Y54.0381 I-0.2416 J-0.2014
G03 X49.7183 Y53.8766 I0.1107 J-0.2696
G00 Z5.0000


(No. 23: Engraving 1807)
G00 X49.0111 Y55.4960 Z5.0000
G00 Z0.5000
G01 Z0.0000 F2400
G01 Z-1.0000
G01 X49.1608 Y55.6358 F6000
G01 X49.2070 Y55.6841
G01 X49.2308 Y55.7430
G03 X48.9783 Y56.2863 I-0.9912 J-0.1302
G03 X48.4078 Y56.8388 I-1.0162 J-0.4786
G01 X48.3448 Y56.8311
G01 X48.1031 Y56.6275
G01 X48.0190 Y56.6953
G01 X47.9057 Y56.7607
G01 X47.7767 Y56.6639
G01 X47.6477 Y56.5671
G01 X47.6240 Y56.5082
G03 X47.6973 Y56.2423 I0.4838 J-0.0097
G01 X48.5822 Y55.1084
G01 X48.6607 Y55.0624
G03 X48.9748 Y55.1515 I0.0468 J0.4333
G01 X49.0962 Y55.2806
G01 X49.0841 Y55.3957
G01 X49.0111 Y55.4960
G01 Z-1.5000 F2400
G01 X49.0841 Y55.3957 F6000
G01 X49.0962 Y55.2806
G01 X48.9748 Y55.1515
G02 X48.6607 Y55.0624 I-0.2939 J0.4380
G01 X48.5822 Y55.1084
G01 X47.6973 Y56.2423
G02 X47.6240 Y56.5082 I0.3087 J0.2281
G01 X47.6477 Y56.5671
G01 X47.7767 Y56.6639
G01 X47.9057 Y56.7607
G01 X48.0190 Y56.6953
G01 X48.1031 Y56.6275
G01 X48.3448 Y56.8311
G01 X48.4078 Y56.8388
G02 X48.8672 Y56.4542 I-0.3825 J-0.9236
G02 X49.2070 Y55.9027 I-2.6032 J-1.9847
G01 X49.2311 Y55.8150
G01 X49.2308 Y55.7430
G01 X49.2070 Y55.6841
G01 X49.1608 Y55.6358
G01 X49.0111 Y55.4960
G00 Z5.0000


(No. 24: Engraving 205)
G00 X49.9654 Y56.8579 Z5.0000
G00 Z0.5000
G01 Z0.0000 F2400
G01 Z-1.0000
G01 X50.5492 Y57.2970 F6000
G01 X50.5552 Y57.3147
G03 X49.9773 Y58.0892 I-1.5755 J-0.5727
G03 X49.7543 Y58.0075 I-0.0337 J-0.2532
G03 X49.0771 Y57.3436 I1.8595 J-2.5742
G03 X49.1996 Y56.6662 I0.3437 J-0.2876
G03 X49.7039 Y56.6786 I0.2442 J0.3319
G01 X49.8257 Y56.7565
G01 X49.9654 Y56.8579
G01 Z-1.5000 F2400
G02 X49.4191 Y56.5789 I-0.6916 J0.6797 F6000
G02 X49.0344 Y57.2724 I0.0351 J0.4729
G02 X49.8992 Y58.0875 I2.4028 J-1.6831
G02 X50.1785 Y57.9138 I0.0065 J-0.3009
G02 X50.5552 Y57.3147 I-1.1444 J-1.1376
G01 X50.5492 Y57.2970
G01 X49.9654 Y56.8579
G00 Z5.0000


(No. 25: Engraving 215)
G00 X51.4362 Y57.9373 Z5.0000
G00 Z0.5000
G01 Z0.0000 F2400
G01 Z-1.0000
G03 X51.6577 Y58.3867 I-0.4642 J0.5081 F6000
G03 X50.6510 Y58.8077 I-0.6826 J-0.2182
G03 X50.6085 Y57.9949 I0.2776 J-0.4220
G03 X51.4362 Y57.9373 I0.4371 J0.3046
G01 Z-1.5000 F2400
G02 X50.6085 Y57.9949 I-0.3904 J0.3661 F6000
G02 X50.5848 Y58.7568 I0.3131 J0.3911
G02 X51.5457 Y58.6077 I0.4086 J-0.5377
G02 X51.5927 Y58.1607 I-0.2166 J-0.2487
G01 X51.5223 Y58.0413
G01 X51.4362 Y57.9373
G00 Z5.0000


(No. 26: Engraving 222)
G00 X52.5334 Y58.2903 Z5.0000
G00 Z0.5000
G01 Z0.0000 F2400
G01 Z-1.0000
G03 X53.2675 Y58.6845 I-0.2303 J1.3098 F6000
G03 X53.7911 Y59.7653 I-3.5145 J2.3698
G02 X54.3022 Y60.7134 I6.8279 J-3.0691
G01 X54.3088 Y60.7452
G01 X54.3060 Y60.7692
G01 X54.2936 Y60.7844
G01 X54.2711 Y60.7897
G01 X54.1374
G03 X51.8691 Y59.4598 I11.9006 J-22.8959
G03 X51.7364 Y58.9230 I0.1656 J-0.3257
G03 X52.0874 Y58.3162 I2.3927 J0.9790
G03 X52.5334 Y58.2903 I0.2427 J0.3255
G01 Z-1.5000 F2400
G02 X52.1694 Y58.2611 I-0.2176 J0.4289 F6000
G02 X51.8314 Y58.7303 I0.5605 J0.7602
G02 X51.6717 Y59.1440 I0.8496 J0.5657
G02 X51.8691 Y59.4598 I0.4111 J-0.0374
G02 X54.1374 Y60.7897 I14.1689 J-21.5659
G01 X54.2711
G01 X54.2936 Y60.7844
G01 X54.3060 Y60.7692
G02 X54.1391 Y60.4600 I-0.5504 J0.0974
G03 X53.5526 Y59.1753 I7.6890 J-4.2864
G02 X53.0337 Y58.4889 I-1.2054 J0.3720
G02 X52.5334 Y58.2903 I-1.2056 J2.3077
G00 Z5.0000


(No. 27: Engraving 251)
G00 X53.5993 Y61.3014 Z5.0000
G00 Z0.5000
G01 Z0.0000 F2400
G01 Z-1.0000
G01 X53.8289 Y61.4471 F6000
G01 X51.2404 Y64.4377
G03 X50.8720 Y63.6687 I2.0231 J-1.4417
G03 X51.0259 Y63.2096 I0.6699 J-0.0309
G03 X52.8030 Y61.1501 I38.7142 J31.6101
G03 X53.5993 Y61.3014 I0.1652 J1.3022
G01 Z-1.5000 F2400
G02 X52.8030 Y61.1501 I-0.6407 J1.2013 F6000
G01 X51.7719 Y62.3173
G02 X50.9650 Y63.3038 I3.5976 J3.7659
G02 X50.9906 Y63.9611 I0.4403 J0.3120
G01 X51.2404 Y64.4377
G01 X53.8289 Y61.4471
G01 X53.5993 Y61.3014
G00 Z5.0000


(No. 28: Engraving 252)
G00 X55.8024 Y60.8967 Z5.0000
G00 Z0.5000
G01 Z0.0000 F2400
G01 Z-1.0000
G01 Y61.0038 F6000
G01 X51.4300 Y66.1057
G01 X51.2958 Y66.1583
G01 X51.2576 Y66.1660
G03 X51.0492 Y65.9034 I0.0815 J-0.2787
G03 X51.2072 Y65.1533 I0.7465 J-0.2344
G01 X54.9915 Y60.7915
G03 X55.7704 Y60.8553 I0.2608 J1.6018
G01 X55.7941 Y60.8753
G01 X55.8024 Y60.8967
G01 Z-1.5000 F2400
G01 X55.7941 Y60.8753 F6000
G02 X55.3969 Y60.7906 I-0.3164 J0.5102
G01 X54.9915 Y60.7915
G01 X51.2072 Y65.1533
G02 X51.1854 Y66.1401 I0.5624 J0.5061
G01 X51.2207 Y66.1594
G01 X51.2576 Y66.1660
G01 X51.2958 Y66.1583
G01 X51.4300 Y66.1057
G01 X55.8024 Y61.0038
G01 Y60.8967
G00 Z5.0000


(No. 29: Engraving 260)
G00 X56.6414 Y61.1501 Z5.0000
G00 Z0.5000
G01 Z0.0000 F2400
G01 Z-1.0000
G01 X60.9972 Y64.8837 F6000
G03 X59.6737 Y66.4739 I-14.1161 J-10.4022
G01 X59.6182 Y66.5224
G01 X59.5866 Y66.5394
G01 X59.4965 Y66.5399
G03 X57.7456 Y64.8932 I18.6894 J-21.6254
G03 X57.5554 Y64.5011 I0.3280 J-0.4013
G03 X57.6945 Y64.1978 I0.6342 J0.1072
G02 X58.1218 Y63.5747 I-2.6391 J-2.2680
G02 X57.9395 Y63.1114 I-0.4151 J-0.1043
G02 X56.9395 Y62.2369 I-6.8925 J6.8730
G02 X56.4653 Y62.2864 I-0.2041 J0.3411
G02 X54.9241 Y63.9355 I7.4416 J8.4994
G01 X53.9749 Y65.0498
G01 X52.5979 Y66.6605
G02 X54.0032 Y67.7914 I12.0720 J-13.5625
G02 X54.4145 Y67.9199 I0.3414 J-0.3704
G02 X54.8243 Y67.5494 I-0.3941 J-0.8478
G03 X55.1305 Y67.2366 I0.8545 J0.5302
G03 X55.4750 Y67.3027 I0.1130 J0.3416
G03 X57.4242 Y68.9529 I-25.5775 J32.1896
G03 X57.2309 Y69.3363 I-0.4477 J0.0148
G03 X56.1553 Y70.5235 I-20.0749 J-17.1073
G01 X51.6801 Y66.6822
G01 X52.6150 Y65.5874
G02 X56.4293 Y61.1501 I-325.9286 J-284.0268
G01 X56.6414
G01 Z-1.5000 F2400
G01 X56.4293 F6000
G03 X52.6150 Y65.5874 I-1303.9358 J-1117.0079
G01 X51.6801 Y66.6822
G01 X56.1553 Y70.5235
G02 X57.3677 Y69.1564 I-9.8694 J-9.9742
G02 X57.4242 Y68.9529 I-0.1822 J-0.1601
G01 X56.3262 Y67.9979
G01 X55.6851 Y67.4537
G02 X55.2483 Y67.2130 I-0.6055 J0.5821
G02 X54.9598 Y67.3841 I0.0335 J0.3854
G03 X54.5421 Y67.8558 I-2.1625 J-1.4941
G03 X54.0032 Y67.7914 I-0.2294 J-0.3674
G03 X52.5979 Y66.6605 I10.6667 J-14.6934
G03 X55.8895 Y62.8273 I193.2789 J162.6360
G03 X56.5361 Y62.2428 I2.1945 J1.7780
G03 X57.0502 Y62.3143 I0.2151 J0.3375
G03 X58.0126 Y63.1893 I-9.1546 J11.0356
G03 X58.0902 Y63.6431 I-0.2086 J0.2692
G02 X57.5967 Y64.3590 I29.3016 J20.7279
G02 X57.7456 Y64.8932 I0.4206 J0.1706
G02 X59.4965 Y66.5399 I20.4403 J-19.9786
G01 X59.5866 Y66.5394
G02 X59.8442 Y66.2959 I-0.6165 J-0.9101
G02 X60.9972 Y64.8837 I-25.6295 J-22.1006
G01 X56.6414 Y61.1501
G00 Z5.0000


(No. 30: Engraving 269)
G00 X57.1979 Y63.1774 Z5.0000
G00 Z0.5000
G01 Z0.0000 F2400
G01 Z-1.0000
G03 X57.4291 Y63.5453 I-0.2884 J0.4378 F6000
G03 X57.1382 Y64.0679 I-0.9542 J-0.1889
G03 X54.5702 Y66.9467 I-35.1356 J-28.7582
G03 X54.1503 Y67.2132 I-0.6130 J-0.5017
G03 X53.8068 Y66.9792 I0.0673 J-0.4679
G03 X53.5240 Y66.5986 I0.5444 J-0.6998
G03 X53.6625 Y66.2464 I0.4714 J-0.0180
G01 X53.9103 Y65.9015
G01 X56.5869 Y62.7720
G03 X56.8972 Y62.8911 I0.0566 J0.3163
G01 X57.0422 Y63.0200
G01 X57.1979 Y63.1774
G01 Z-1.5000 F2400
G02 X56.7350 Y62.7802 I-1.4504 J1.2220 F6000
G01 X56.7038 Y62.7720
G01 X56.5869
G01 X53.9103 Y65.9015
G02 X53.5218 Y66.5215 I1.1582 J1.1573
G02 X53.8068 Y66.9792 I0.6836 J-0.1081
G02 X54.1503 Y67.2132 I0.4108 J-0.2339
G02 X54.7334 Y66.7861 I-0.4634 J-1.2442
G02 X57.3058 Y63.8458 I-42.4464 J-39.7316
G02 X57.4213 Y63.4867 I-0.3002 J-0.2947
G02 X57.1979 Y63.1774 I-0.7005 J0.2708
G00 Z5.0000


(No. 31: Engraving 1793)
G00 X55.8211 Y66.4182 Z5.0000
G00 Z0.5000
G01 Z0.0000 F2400
G01 Z-1.0000
G01 X56.3208 Y65.8423 F6000
G01 X56.9201 Y65.2091
G03 X57.1728 Y65.1086 I0.2014 J0.1383
G03 X58.9842 Y66.7465 I-16.0154 J19.5320
G03 X58.9956 Y67.2262 I-0.1758 J0.2442
G01 X58.8686 Y67.3654
G01 X58.2872 Y68.1249
G03 X57.9561 Y68.3937 I-0.6447 J-0.4556
G03 X57.5600 Y68.2768 I-0.0585 J-0.5312
G03 X55.9285 Y66.9136 I9.5534 J-13.0912
G03 X55.8211 Y66.4182 I0.1957 J-0.3018
G01 Z-1.5000 F2400
G02 X55.9285 Y66.9136 I0.3031 J0.1936 F6000
G02 X57.5600 Y68.2768 I12.8427 J-13.7119
G02 X57.9561 Y68.3937 I0.3021 J-0.2938
G02 X58.2872 Y68.1249 I-0.3136 J-0.7245
G01 X58.8686 Y67.3654
G02 X59.1006 Y67.0564 I-0.3905 J-0.5349
G02 X58.9842 Y66.7465 I-0.3537 J-0.0439
G02 X57.1728 Y65.1086 I-17.8268 J17.8941
G02 X56.9201 Y65.2091 I-0.0513 J0.2389
G01 X56.3208 Y65.8423
G01 X55.8211 Y66.4182
G00 Z5.0000


(No. 32: Engraving 1729)
G00 X55.3722 Y70.9770 Z5.0000
G00 Z0.5000
G01 Z0.0000 F2400
G01 Z-1.0000
G01 X51.0517 Y67.2770 F6000
G02 X50.6653 Y67.4623 I-0.0633 J0.3635
G02 X49.9672 Y68.2600 I20.8377 J18.9419
G03 X49.3814 Y68.4783 I-0.5072 J-0.4662
G03 X45.7395 Y67.4869 I0.9196 J-10.5637
G03 X45.4116 Y67.1702 I0.2037 J-0.5391
G01 X45.4199 Y67.1340
G01 X45.4529 Y67.1090
G03 X45.9771 Y67.1524 I0.1835 J0.9714
G03 X47.9000 Y67.7445 I-5.8905 J22.5469
G02 X49.2214 Y67.9082 I0.9892 J-2.5696
G02 X50.1235 Y67.0810 I-0.3593 J-1.2973
G02 X50.1375 Y66.3572 I-1.0776 J-0.3829
G03 X49.9811 Y65.4700 I2.4183 J-0.8839
G03 X50.3082 Y64.8421 I1.2071 J0.2296
G03 X50.6336 Y64.5900 I0.4995 J0.3087
G01 X50.6651 Y64.5919
G01 X50.6923 Y64.6034
G03 X50.6467 Y65.1341 I-0.3863 J0.2341
G02 X50.5355 Y65.6656 I0.3782 J0.3565
G02 X51.2761 Y67.0144 I2.6248 J-0.5634
G02 X54.2707 Y69.5894 I22.2581 J-22.8562
G02 X56.0349 Y71.1535 I13.9468 J-13.9539
G02 X56.3119 Y71.2414 I0.2246 J-0.2275
G01 X59.3107 Y67.7275
G01 X59.4988 Y67.5473
G01 X61.4765 Y65.2047
G02 X61.6823 Y65.0409 I-0.0649 J-0.2927
G02 X61.5057 Y64.6331 I-0.6414 J0.0356
G03 X60.9704 Y63.9887 I3.3548 J-3.3315
G03 X60.9451 Y63.8775 I0.1202 J-0.0858
G01 X60.9577 Y63.8534
G03 X61.2535 Y63.8318 I0.1667 J0.2475
G01 X61.2672 Y63.8280
G02 X61.3780 Y63.1483 I-1.3980 J-0.5766
G03 X61.4223 Y61.8446 I13.5123 J-0.1933
G03 X61.7420 Y61.4124 I0.4957 J0.0323
G02 X62.5169 Y60.8388 I-0.7692 J-1.8496
G02 X63.7848 Y59.1472 I-13.7387 J-11.6186
G03 X64.1390 Y58.7819 I0.8776 J0.4965
G03 X64.4023 Y58.8604 I0.0704 J0.2445
G02 X65.0109 Y59.2942 I1.1149 J-0.9203
G02 X65.8353 Y59.0442 I0.1773 J-0.9000
G02 X66.7926 Y58.2319 I-22.5709 J-27.5673
G01 X66.8371 Y58.2049
G01 X66.8710 Y58.1918
G01 X66.8952 Y58.1925
G01 X66.9107 Y58.2067
G03 X66.8702 Y58.5651 I-0.6262 J0.1107
G02 X67.1038 Y59.4416 I0.8981 J0.2300
G02 X68.4671 Y60.0808 I1.2251 J-0.8395
G01 X68.5399 Y60.0946
G01 X68.5593 Y60.1057
G01 X68.5674 Y60.1205
G01 X68.5644 Y60.1393
G03 X68.2363 Y60.4293 I-0.9966 J-0.7969
G03 X67.6759 Y60.7492 I-0.8793 J-0.8895
G03 X67.2256 Y60.5816 I-0.0524 J-0.5477
G03 X66.5796 Y59.8419 I11.0888 J-10.3373
G02 X66.2479 Y59.6815 I-0.2766 J0.1488
G03 X65.7478 Y59.9321 I-4.2300 J-7.8165
G03 X64.6638 Y60.0242 I-0.7394 J-2.2784
G02 X64.2619 Y60.1064 I-0.1126 J0.4728
G02 X63.9197 Y60.8550 I1.4450 J1.1130
G03 X62.8383 Y62.3750 I-2.9189 J-0.9321
G02 X62.5012 Y63.1338 I0.4130 J0.6378
G03 X62.6139 Y64.2591 I-59.9459 J6.5743
G03 X62.2192 Y65.3743 I-1.5550 J0.0770
G03 X60.8167 Y67.0067 I-22.2049 J-17.6590
G01 X56.4698 Y72.1255
G02 X53.1082 Y72.9785 I2.9918 J18.8411
G02 X52.6176 Y73.2683 I0.2648 J1.0084
G02 X52.3786 Y74.3170 I1.4909 J0.8915
G03 X52.3097 Y75.0052 I-1.5589 J0.1915
G03 X51.8274 Y75.4823 I-1.0003 J-0.5287
G02 X50.2165 Y76.5066 I7.3023 J13.2627
G02 X48.5888 Y78.1424 I4.0708 J5.6787
G03 X47.8183 Y78.9745 I-3.1548 J-2.1483
G03 X47.1236 Y79.0633 I-0.4481 J-0.7439
G03 X43.2727 Y78.0744 I21.3750 J-91.2337
G03 X42.8358 Y77.8965 I0.2332 J-1.1981
G01 X42.8015 Y77.8595
G01 X42.7829 Y77.8192
G03 X42.8980 Y77.5261 I0.3790 J-0.0204
G03 X44.1378 Y76.3369 I3.8384 J2.7610
G03 X45.1655 Y75.7604 I2.4533 J3.1694
G03 X45.8945 Y75.8722 I0.2089 J1.0706
G03 X46.1012 Y76.0062 I-0.0662 J0.3284
G03 X46.0333 Y76.2122 I-0.1977 J0.0490
G02 X45.3933 Y77.0859 I3.1115 J2.9504
G01 X45.3685 Y77.1532
G01 X45.3607 Y77.2033
G01 X45.3694 Y77.2359
G01 X45.3943 Y77.2502
G02 X45.9838 Y76.7880 I-0.5495 J-1.3079
G03 X46.4993 Y76.3002 I1.8064 J1.3928
G03 X46.9519 Y76.2800 I0.2483 J0.4807
G03 X47.8465 Y76.6385 I-55.8891 J140.7635
G02 X48.7363 Y76.5211 I0.3337 J-0.9011
G02 X51.2072 Y74.9558 I-21.3622 J-36.4548
G02 X51.7086 Y74.4907 I-1.0935 J-1.6815
G02 X51.6340 Y73.5732 I-0.6984 J-0.4050
G03 X51.2774 Y73.0561 I2.5129 J-2.1144
G03 X51.4003 Y72.6467 I0.4169 J-0.0980
G03 X52.1474 Y71.7757 I6.5847 J4.8928
G03 X52.5465 Y71.7143 I0.2338 J0.1923
G02 X53.2785 Y72.1883 I4.0189 J-5.4044
G02 X53.7920 Y72.1800 I0.2465 J-0.6338
G02 X55.7319 Y71.4477 I-16.6555 J-47.0575
G01 X55.7823 Y71.4144
G01 X55.7952 Y71.3974
G01 X55.7999 Y71.3796
G01 X55.7848 Y71.3392
G03 X55.3722 Y70.9770 I2.6359 J-3.4190
G01 Z-1.5000 F2400
G02 X55.7848 Y71.3392 I3.0486 J-3.0568 F6000
G01 X55.7999 Y71.3796
G01 X55.7952 Y71.3974
G03 X55.5321 Y71.5274 I-0.3483 J-0.3740
G01 X54.3023 Y71.9934
G03 X53.4724 Y72.2357 I-0.8939 J-1.5192
G03 X52.8770 Y71.9322 I0.2151 J-1.1579
G02 X52.4259 Y71.6699 I-0.7855 J0.8320
G02 X52.0823 Y71.8376 I-0.0028 J0.4303
G02 X51.3088 Y72.7872 I7.3234 J6.7548
G02 X51.3798 Y73.2275 I0.2999 J0.1775
G03 X51.8154 Y74.0265 I-1.0906 J1.1128
G03 X51.5226 Y74.6925 I-0.7104 J0.0850
G01 X51.2072 Y74.9558
G03 X48.7363 Y76.5211 I-23.8331 J-34.8895
G03 X47.7276 Y76.5947 I-0.5657 J-0.8028
G02 X46.8612 Y76.2550 I-2.9137 J6.1564
G02 X46.3573 Y76.4060 I-0.1276 J0.4905
G03 X45.6466 Y77.1126 I-12.0589 J-11.4186
G03 X45.3943 Y77.2502 I-0.3324 J-0.3095
G01 X45.3694 Y77.2359
G01 X45.3607 Y77.2033
G03 X45.5743 Y76.7882 I0.8431 J0.1713
G01 X45.7881 Y76.5157
G02 X46.1064 Y76.0727 I-0.5096 J-0.7020
G02 X45.8945 Y75.8722 I-0.2287 J0.0294
G02 X45.3087 Y75.7329 I-0.5714 J1.1020
G02 X44.3288 Y76.2082 I0.7129 J2.7175
G02 X42.8980 Y77.5261 I2.5324 J4.1852
G02 X42.7829 Y77.8192 I0.2640 J0.2727
G02 X43.0416 Y77.9999 I0.3379 J-0.2081
G02 X47.2923 Y79.0895 I19.7895 J-68.3713
G02 X48.0757 Y78.7490 I0.0834 J-0.8797
G02 X49.2522 Y77.3412 I-66.2341 J-56.5464
G03 X51.5033 Y75.6831 I6.8432 J6.9336
G02 X52.2152 Y75.1624 I-0.9865 J-2.0959
G02 X52.3760 Y74.6015 I-0.7653 J-0.5228
G03 X52.4543 Y73.6010 I3.3838 J-0.2384
G03 X52.8530 Y73.0915 I0.6830 J0.1237
G03 X55.9109 Y72.2325 I5.7324 J14.5328
G01 X56.4698 Y72.1255
G03 X62.0860 Y65.5470 I803.7861 J680.5191
G02 X62.6039 Y64.5433 I-1.3434 J-1.3287
G02 X62.5234 Y63.3936 I-5.0391 J-0.2247
G03 X62.5309 Y62.7725 I1.3580 J-0.2942
G03 X63.0315 Y62.2142 I1.1725 J0.5478
G02 X64.0162 Y60.5726 I-2.2622 J-2.4731
G03 X64.2619 Y60.1064 I0.9109 J0.1823
G03 X64.6638 Y60.0242 I0.3009 J0.4471
G02 X66.1997 Y59.6959 I0.3684 J-2.0330
G03 X66.5796 Y59.8419 I0.0998 J0.3075
G02 X67.2256 Y60.5816 I11.7349 J-9.5977
G02 X68.0215 Y60.5872 I0.4007 J-0.3877
G02 X68.5502 Y60.1628 I-1.2614 J-2.1127
G01 X68.5644 Y60.1393
G01 X68.5674 Y60.1205
G01 X68.5593 Y60.1057
G02 X68.1826 Y60.0729 I-0.2563 J0.7638
G03 X67.1038 Y59.4416 I0.1667 J-1.5222
G03 X66.8702 Y58.5651 I0.6542 J-0.6438
G02 X66.9107 Y58.2067 I-0.3869 J-0.2252
G01 X66.8952 Y58.1925
G01 X66.8710 Y58.1918
G02 X66.6683 Y58.3284 I0.2580 J0.6016
G03 X65.7140 Y59.1285 I-5.1130 J-5.1291
G03 X64.9192 Y59.2592 I-0.5034 J-0.5795
G03 X64.3459 Y58.8170 I2.2508 J-3.5105
G02 X64.0211 Y58.8657 I-0.1381 J0.1867
G02 X63.0877 Y60.1428 I12.1488 J9.8585
G03 X62.0327 Y61.2709 I-3.7051 J-2.4076
G02 X61.5674 Y61.5261 I0.7850 J1.9830
G02 X61.4001 Y62.0571 I0.6071 J0.4831
G03 X61.3289 Y63.6467 I-10.2278 J0.3382
G03 X61.2672 Y63.8280 I-0.2271 J0.0239
G01 X61.2535 Y63.8318
G02 X60.9577 Y63.8534 I-0.1290 J0.2690
G01 X60.9451 Y63.8775
G02 X61.1521 Y64.2344 I0.5102 J-0.0574
G03 X61.6353 Y64.8329 I-1.7365 J1.8962
G03 X61.6823 Y65.0409 I-0.2058 J0.1558
G03 X61.4765 Y65.2047 I-0.3557 J-0.2358
G01 X59.4988 Y67.5473
G01 X59.3107 Y67.7275
G01 X56.3119 Y71.2414
G03 X55.9071 Y71.0584 I-0.0201 J-0.4946
G03 X54.2707 Y69.5894 I16.0320 J-19.5054
G03 X51.5287 Y67.2726 I24.7574 J-32.0817
G03 X50.6866 Y66.1402 I2.0319 J-2.3902
G03 X50.5080 Y65.4360 I1.7501 J-0.8187
G03 X50.6467 Y65.1341 I0.3778 J-0.0093
G02 X50.7330 Y64.6557 I-0.4158 J-0.3220
G01 X50.7150 Y64.6247
G01 X50.6923 Y64.6034
G02 X50.4180 Y64.7233 I-0.0614 J0.2333
G02 X50.0021 Y65.3498 I1.0283 J1.1339
G02 X50.0847 Y66.1451 I1.6954 J0.2259
G03 X50.1656 Y66.9574 I-1.3751 J0.5471
G03 X49.3539 Y67.8732 I-1.3530 J-0.3815
G03 X48.1397 Y67.8110 I-0.4945 J-2.2276
G02 X45.9771 Y67.1524 I-10.5340 J30.7111
G02 X45.4529 Y67.1090 I-0.3407 J0.9280
G01 X45.4199 Y67.1340
G01 X45.4116 Y67.1702
G02 X45.8853 Y67.5635 I0.7879 J-0.4672
G02 X49.3814 Y68.4783 I4.2198 J-8.9891
G02 X50.1052 Y68.1087 I0.0634 J-0.7692
G03 X50.8736 Y67.2899 I2.8427 J1.8976
G01 X50.9119 Y67.2770
G01 X51.0517
G01 X55.3722 Y70.9770
G00 Z5.0000


(No. 33: Engraving 306)
G00 X52.2280 Y70.0129 Z5.0000
G00 Z0.5000
G01 Z0.0000 F2400
G01 Z-1.0000
G03 X52.6167 Y69.6258 I0.6554 J0.2695 F6000
G01 X52.6593 Y69.6196
G03 X52.9480 Y69.7791 I-0.1831 J0.6725
G03 X53.7274 Y70.5771 I-2.4905 J3.2121
G03 X53.6855 Y70.9075 I-0.2012 J0.1423
G03 X53.3790 Y71.1676 I-0.7223 J-0.5405
G03 X53.0329 Y71.0478 I-0.0723 J-0.3510
G03 X52.3024 Y70.3721 I2.6381 J-3.5845
G03 X52.2280 Y70.0129 I0.2404 J-0.2372
G01 Z-1.5000 F2400
G02 X52.3970 Y70.4838 I0.4342 J0.1100 F6000
G02 X53.1539 Y71.1285 I4.0263 J-3.9605
G02 X53.5021 Y71.0904 I0.1529 J-0.2129
G02 X53.7632 Y70.7869 I-0.5688 J-0.7534
G02 X53.6492 Y70.4677 I-0.3027 J-0.0719
G02 X52.7751 Y69.6625 I-3.0052 J2.3856
G01 X52.7086 Y69.6307
G01 X52.6593 Y69.6196
G02 X52.2280 Y70.0129 I0.2194 J0.6737
G00 Z5.0000


(No. 34: Engraving 308)
G00 X51.0404 Y71.1354 Z5.0000
G00 Z0.5000
G01 Z0.0000 F2400
G01 Z-1.0000
G03 X51.5558 Y71.6704 I-1.3065 J1.7741 F6000
G01 X51.5751 Y71.7182
G01 X51.5756 Y71.7353
G01 X51.5696 Y71.7474
G01 X51.5392 Y71.7551
G03 X50.4046 Y70.8163 I1.4514 J-2.9092
G01 X50.3710 Y70.7627
G01 X50.3569 Y70.7245
G01 X50.3617 Y70.7020
G01 X50.3853 Y70.6956
G03 X51.0404 Y71.1354 I-0.6748 J1.7134
G01 Z-1.5000 F2400
G02 X50.4271 Y70.7058 I-1.6096 J1.6457 F6000
G01 X50.3853 Y70.6956
G01 X50.3617 Y70.7020
G01 X50.3569 Y70.7245
G02 X51.4160 Y71.7069 I2.7030 J-1.8518
G01 X51.4870 Y71.7410
G01 X51.5392 Y71.7551
G01 X51.5696 Y71.7474
G01 X51.5756 Y71.7353
G01 X51.5751 Y71.7182
G02 X51.0404 Y71.1354 I-1.5320 J0.8688
G00 Z5.0000


(No. 35: Engraving 315)
G00 X50.4907 Y72.1054 Z5.0000
G00 Z0.5000
G01 Z0.0000 F2400
G01 Z-1.0000
G03 X50.8239 Y72.5612 I-0.8002 J0.9348 F6000
G01 X50.8261 Y72.6075
G01 X50.8186 Y72.6241
G01 X50.8054 Y72.6362
G01 X50.7612 Y72.6460
G03 X50.1181 Y72.2681 I0.3906 J-1.4009
G03 X49.6889 Y71.7629 I0.7221 J-1.0484
G03 X49.7106 Y71.5971 I0.1856 J-0.0600
G01 X49.7343 Y71.5783
G03 X50.1476 Y71.7779 I0.0076 J0.5116
G01 X50.3086 Y71.9231
G01 X50.4907 Y72.1054
G01 Z-1.5000 F2400
G02 X49.8929 Y71.6010 I-1.9140 J1.6616 F6000
G02 X49.7343 Y71.5783 I-0.1030 J0.1543
G01 X49.7106 Y71.5971
G02 X49.8103 Y71.9586 I0.2708 J0.1198
G02 X50.7041 Y72.6381 I1.6309 J-1.2176
G01 X50.7612 Y72.6460
G01 X50.8054 Y72.6362
G01 X50.8186 Y72.6241
G01 X50.8261 Y72.6075
G02 X50.4907 Y72.1054 I-0.9125 J0.2465
G00 Z5.0000


(No. 36: Engraving 327)
G00 X49.0868 Y71.8141 Z5.0000
G00 Z0.5000
G01 Z0.0000 F2400
G01 Z-1.0000
G03 X49.1345 Y72.3068 I-0.2600 J0.2739 F6000
G03 X48.2008 Y72.5503 I-0.8330 J-1.2824
G01 X48.1809 Y72.5385
G01 X48.1717 Y72.5207
G03 X48.2395 Y72.3749 I0.2535 J0.0293
G03 X48.7682 Y71.7530 I2.9663 J1.9863
G01 X48.8407 Y71.7089
G01 X48.9052 Y71.6944
G01 X48.9654 Y71.7081
G01 X49.0248 Y71.7485
G01 X49.0868 Y71.8141
G01 Z-1.5000 F2400
G01 X49.0248 Y71.7485 F6000
G01 X48.9654 Y71.7081
G01 X48.9052 Y71.6944
G02 X48.4689 Y72.0784 I0.3726 J0.8633
G02 X48.1730 Y72.4960 I0.5756 J0.7214
G01 X48.1717 Y72.5207
G01 X48.1809 Y72.5385
G01 X48.2008 Y72.5503
G02 X49.1345 Y72.3068 I0.1170 J-1.4636
G02 X49.0868 Y71.8141 I-0.3319 J-0.2165
G00 Z5.0000


(No. 37: Engraving 342)
G00 X47.4787 Y73.4105 Z5.0000
G00 Z0.5000
G01 Z0.0000 F2400
G01 Z-1.0000
G03 X46.3469 Y75.5208 I-2.2238 J0.1660 F6000
G03 X45.8273 Y75.4355 I-0.2070 J-0.3638
G03 X46.0852 Y74.9070 I1.0170 J0.1690
G03 X47.4146 Y73.2661 I14.2814 J10.2111
G01 X47.4343 Y73.2605
G01 X47.4498 Y73.2663
G03 X47.4787 Y73.4105 I-0.2051 J0.1161
G01 Z-1.5000 F2400
G02 X47.4498 Y73.2663 I-0.1608 J-0.0428 F6000
G01 X47.4343 Y73.2605
G01 X47.4146 Y73.2661
G02 X45.9252 Y75.1593 I11.2614 J10.3912
G02 X45.8273 Y75.4355 I0.3680 J0.2859
G02 X46.5010 Y75.4406 I0.3396 J-0.3590
G02 X47.4787 Y73.4105 I-1.2954 J-1.8743
G00 Z5.0000


(No. 38: Engraving 363)
G00 X48.0975 Y74.9683 Z5.0000
G00 Z0.5000
G01 Z0.0000 F2400
G01 Z-1.0000
G02 X48.5545 Y75.1758 I0.4145 J-0.3060 F6000
G03 X49.4962 Y75.1289 I5.1312 J93.5601
G03 X49.7626 Y75.2010 I0.0348 J0.3995
G01 X49.7688 Y75.2199
G01 X49.7669 Y75.2428
G03 X49.3970 Y75.6236 I-0.8584 J-0.4638
G03 X48.3195 Y76.2478 I-2.5313 J-3.1279
G03 X47.7318 Y76.1911 I-0.2206 J-0.7878
G03 X47.0042 Y75.8289 I0.7850 J-2.4885
G01 X46.9979 Y75.8055
G03 X47.8586 Y74.8557 I2.6848 J1.5681
G01 X47.8954 Y74.8454
G03 X48.0975 Y74.9683 I-0.0779 J0.3560
G01 Z-1.5000 F2400
G02 X47.8954 Y74.8454 I-0.2427 J0.1717 F6000
G02 X47.3577 Y75.3092 I0.8463 J1.5247
G02 X46.9979 Y75.8055 I1.0637 J1.1499
G01 X47.0042 Y75.8289
G02 X48.1358 Y76.2871 I1.5979 J-2.3198
G02 X49.1335 Y75.8114 I-0.6479 J-2.6431
G02 X49.7402 Y75.2993 I-1.0478 J-1.8567
G01 X49.7669 Y75.2428
G01 X49.7688 Y75.2199
G01 X49.7626 Y75.2010
G02 X49.2557 Y75.1283 I-0.3605 J0.7103
G03 X48.4388 Y75.1658 I-0.5502 J-3.0666
G03 X48.0975 Y74.9683 I-0.0162 J-0.3656
G00 Z5.0000


(No. 39: Engraving 1739)
G00 X48.8586 Y74.7521 Z5.0000
G00 Z0.5000
G01 Z0.0000 F2400
G01 Z-1.0000
G03 X48.0856 Y73.4131 I0.0000 J-0.8926 F6000
G03 X49.6317 I0.7731 J0.4463
G03 X48.8586 Y74.7521 I-0.7731 J0.4463
G01 Z-1.5000 F2400
G02 X49.6317 Y73.4131 I0.0000 J-0.8926 F6000
G02 X48.0856 I-0.7731 J0.4463
G02 X48.8586 Y74.7521 I0.7731 J0.4463
G00 Z5.0000


(No. 40: Engraving 349)
G00 X51.3814 Y73.7843 Z5.0000
G00 Z0.5000
G01 Z0.0000 F2400
G01 Z-1.0000
G03 X51.2319 Y74.4475 I-0.5439 J0.2259 F6000
G03 X51.0185 Y74.6190 I-0.4001 J-0.2793
G01 X50.9985 Y74.6186
G01 X50.9820 Y74.6090
G03 X50.9369 Y74.1633 I0.8793 J-0.3140
G03 X51.0718 Y73.6338 I0.6797 J-0.1088
G03 X51.3431 Y73.7155 I0.1099 J0.1263
G01 X51.3814 Y73.7843
G01 Z-1.5000 F2400
G02 X51.1830 Y73.5868 I-0.2715 J0.0744 F6000
G02 X50.9856 Y73.7930 I0.0544 J0.2496
G02 X50.9583 Y74.5609 I2.0463 J0.4574
G01 X50.9820 Y74.6090
G01 X50.9985 Y74.6186
G01 X51.0185 Y74.6190
G02 X51.4177 Y73.8683 I-0.3021 J-0.6422
G01 X51.3814 Y73.7843
G00 Z5.0000


(No. 41: Engraving 311)
G00 X50.1102 Y69.6021 Z5.0000
G00 Z0.5000
G01 Z0.0000 F2400
G01 Z-1.0000
G03 X50.3905 Y70.0035 I-1.0295 J1.0175 F6000
G01 X50.3963 Y70.0330
G03 X49.3426 Y71.2483 I-3.9009 J-2.3179
G01 X49.2551 Y71.2860
G01 X49.1769 Y71.2955
G03 X48.9018 Y71.1757 I6.7037 J-15.7698
G02 X48.4299 Y71.5182 I0.2080 J0.7829
G03 X47.4899 Y72.3104 I-1.7599 J-1.1344
G02 X46.7613 Y72.7074 I0.1102 J1.0694
G02 X45.8617 Y74.3417 I2.3566 J2.3620
G03 X45.1253 Y75.2222 I-2.0042 J-0.9281
G02 X42.4915 Y77.4086 I18.1808 J24.5808
G03 X41.6815 Y77.6782 I-0.6743 J-0.6745
G03 X38.8596 Y76.9787 I3.3061 J-19.3790
G03 X42.1377 Y73.5137 I62.9647 J56.2856
G03 X44.0373 Y72.4451 I2.9328 J2.9907
G02 X46.2256 Y71.6895 I-6.8797 J-23.4702
G02 X48.2631 Y70.4431 I-4.2042 J-9.1613
G03 X49.5378 Y69.5523 I8.0002 J10.0905
G03 X49.9146 Y69.4547 I0.2985 J0.3761
G03 X50.1102 Y69.6021 I-0.1599 J0.4155
G01 Z-1.5000 F2400
G02 X49.6369 Y69.5023 I-0.2846 J0.1773 F6000
G02 X47.7991 Y70.7802 I11.5944 J18.6344
G03 X45.2881 Y72.0417 I-5.0518 J-6.9257
G02 X43.2922 Y72.7220 I6.7724 J23.1376
G02 X41.9217 Y73.7225 I1.8290 J3.9440
G02 X38.8596 Y76.9787 I165.7763 J158.9655
G02 X41.7960 Y77.6864 I5.2605 J-15.3811
G02 X42.4915 Y77.4086 I0.0076 J-0.9904
G03 X45.3149 Y75.0664 I22.2533 J23.9533
G02 X45.9400 Y74.0434 I-0.9281 J-1.2696
G03 X47.1005 Y72.4279 I3.1490 J1.0375
G03 X47.4899 Y72.3104 I0.3919 J0.5948
G02 X48.4299 Y71.5182 I-0.8199 J-1.9266
G03 X48.8271 Y71.1851 I0.8329 J0.5897
G01 X48.9018 Y71.1757
G02 X49.1769 Y71.2955 I6.9789 J-15.6500
G02 X49.6848 Y70.9526 I-0.2208 J-0.8746
G02 X50.3849 Y70.0691 I-3.4583 J-3.4594
G01 X50.3963 Y70.0330
G02 X50.1102 Y69.6021 I-1.1245 J0.4363
G00 Z5.0000


(No. 42: Engraving 298)
G00 X51.0270 Y67.8445 Z5.0000
G00 Z0.5000
G01 Z0.0000 F2400
G01 Z-1.0000
G01 X54.8113 Y71.1114 F6000
G01 X54.8613 Y71.2365
G01 X54.8562 Y71.2662
G03 X54.1661 Y71.5849 I-0.9821 J-1.2200
G03 X53.6078 Y71.7299 I-0.8239 J-2.0254
G03 X53.1133 Y71.5213 I0.0579 J-0.8281
G02 X50.4975 Y69.2951 I-90.4466 J103.6225
G03 X50.1252 Y68.9567 I0.6394 J-1.0774
G03 X50.1997 Y68.6708 I0.2130 J-0.0971
G01 X50.4975 Y68.3640
G01 X51.0270 Y67.8445
G01 Z-1.5000 F2400
G01 X50.4975 Y68.3640 F6000
G01 X50.1997 Y68.6708
G02 Y69.0491 I0.1303 J0.1891
G03 X53.1133 Y71.5213 I-86.5729 J104.9811
G02 X53.9003 Y71.6679 I0.4977 J-0.4860
G02 X54.7615 Y71.3446 I-0.9196 J-3.7581
G01 X54.8220 Y71.3027
G01 X54.8562 Y71.2662
G01 X54.8613 Y71.2365
G01 X54.8113 Y71.1114
G01 X51.0270 Y67.8445
G00 Z5.0000


(No. 43: Engraving 290)
G00 X49.5028 Y66.0951 Z5.0000
G00 Z0.5000
G01 Z0.0000 F2400
G01 Z-1.0000
G03 X49.6661 Y66.4815 I-0.3014 J0.3551 F6000
G03 X49.2149 Y67.4374 I-0.9268 J0.1469
G01 X49.1661 Y67.4521
G01 X49.1179 Y67.4572
G01 X49.0987 Y67.4435
G03 X49.1851 Y66.5891 I2.5489 J-0.1738
G03 X49.3594 Y66.0914 I1.1230 J0.1140
G01 X49.3984 Y66.0714
G01 X49.4483 Y66.0731
G01 X49.5028 Y66.0951
G01 Z-1.5000 F2400
G01 X49.4483 Y66.0731 F6000
G01 X49.3984 Y66.0714
G01 X49.3594 Y66.0914
G02 X49.0987 Y67.4435 I2.7455 J1.2306
G01 X49.1179 Y67.4572
G02 X49.5662 Y67.0626 I-0.1123 J-0.5796
G02 X49.5554 Y66.1357 I-0.8959 J-0.4531
G01 X49.5028 Y66.0951
G00 Z5.0000


(No. 44: Engraving 286)
G00 X48.8318 Y66.1546 Z5.0000
G00 Z0.5000
G01 Z0.0000 F2400
G01 Z-1.0000
G02 X48.5924 Y67.3403 I17.6209 J4.1745 F6000
G01 X48.5762 Y67.3587
G03 X47.9676 Y66.8857 I-0.0794 J-0.5258
G03 X48.3488 Y65.8901 I0.8896 J-0.2301
G03 X48.8213 Y65.9181 I0.2180 J0.3219
G03 X48.8318 Y66.1546 I-0.4401 J0.1380
G01 Z-1.5000 F2400
G02 X48.8041 Y65.8923 I-0.2702 J-0.1041 F6000
G02 X48.0922 Y66.1359 I-0.2342 J0.4777
G02 X48.1296 Y67.2093 I0.7892 J0.5098
G02 X48.5511 Y67.3713 I0.3531 J-0.2892
G01 X48.5762 Y67.3587
G01 X48.5924 Y67.3403
G03 X48.8318 Y66.1546 I17.8603 J2.9887
G00 Z5.0000


(No. 45: Engraving 284)
G00 X47.6997 Y66.0037 Z5.0000
G00 Z0.5000
G01 Z0.0000 F2400
G01 Z-1.0000
G02 X47.4968 Y66.9718 I2.4500 J1.0186 F6000
G03 X47.2815 Y67.0710 I-0.1587 J-0.0613
G03 X46.1055 Y66.6971 I0.6196 J-3.9852
G03 X45.8913 Y66.1673 I0.3325 J-0.4426
G03 X45.9496 Y65.7851 I0.5558 J-0.1107
G03 X46.3212 Y65.6647 I0.3183 J0.3488
G03 X47.6000 Y65.6797 I0.5259 J9.6854
G03 X47.7648 Y65.7506 I0.0168 J0.1880
G03 X47.6997 Y66.0037 I-0.2248 J0.0771
G01 Z-1.5000 F2400
G02 X47.7648 Y65.7506 I-0.1596 J-0.1761 F6000
G02 X47.6000 Y65.6797 I-0.1663 J0.1598
G02 X46.1443 Y65.6851 I-0.6920 J9.7259
G02 X45.8941 Y66.0014 I0.0151 J0.2691
G02 X45.9545 Y66.5408 I1.1149 J0.1483
G02 X46.5880 Y66.8881 I0.8030 J-0.7135
G02 X47.3431 Y67.0754 I0.8741 J-1.9077
G02 X47.5108 Y66.8675 I0.0071 J-0.1659
G03 X47.6997 Y66.0037 I1.8371 J-0.0508
G00 Z5.0000


(No. 46: Engraving 242)
G00 X46.6508 Y65.2047 Z5.0000
G00 Z0.5000
G01 Z0.0000 F2400
G01 Z-1.0000
G01 X51.5772 Y59.7968 F6000
G03 X52.8543 Y60.5602 I-2.8892 J6.2837
G01 X52.9079 Y60.6120
G01 X52.9312 Y60.6498
G01 X52.9308 Y60.6629
G01 X52.9220 Y60.6718
G01 X52.8784 Y60.6764
G01 X52.5798 Y60.6531
G01 X50.1760 Y63.5247
G03 X50.4455 Y63.8420 I-0.2663 J0.4993
G03 X50.2467 Y64.2653 I-0.5962 J-0.0217
G02 X49.6640 Y65.0387 I1.9945 J2.1087
G03 X49.4453 Y65.2623 I-0.2550 J-0.0307
G03 X48.1438 Y65.3080 I-0.8125 J-4.5737
G01 X46.7022 Y65.2617
G01 X46.6508 Y65.2047
G01 Z-1.5000 F2400
G01 X46.7022 Y65.2617 F6000
G01 X48.1438 Y65.3080
G02 X49.4453 Y65.2623 I0.4890 J-4.6194
G02 X49.6640 Y65.0387 I-0.0394 J-0.2573
G03 X50.2467 Y64.2653 I2.9598 J1.6236
G02 X50.4495 Y63.9088 I-0.5000 J-0.5204
G02 X50.3759 Y63.7246 I-0.2272 J-0.0161
G01 X50.1760 Y63.5247
G01 X52.5798 Y60.6531
G01 X52.8784 Y60.6764
G01 X52.9220 Y60.6718
G01 X52.9308 Y60.6629
G01 X52.9312 Y60.6498
G02 X52.6641 Y60.4217 I-0.6167 J0.4517
G01 X52.3770 Y60.2482
G01 X51.5772 Y59.7968
G01 X46.6508 Y65.2047
G00 Z5.0000


(No. 47: Engraving 268)
G00 X45.8913 Y64.3071 Z5.0000
G00 Z0.5000
G01 Z0.0000 F2400
G01 Z-1.0000
G03 X45.8496 Y65.1143 I-3.1147 J0.2439 F6000
G03 X45.5592 Y65.2203 I-0.1916 J-0.0742
G03 X44.9259 Y65.0489 I0.6756 J-3.7521
G03 X44.7471 Y64.6610 I0.1719 J-0.3144
G03 X44.8644 Y63.5362 I5.5005 J0.0053
G03 X45.2051 Y63.3162 I0.2964 J0.0852
G03 X45.7175 Y63.3464 I0.1712 J1.4584
G03 X45.8819 Y63.7394 I-0.2387 J0.3307
G01 X45.8913 Y64.3071
G01 Z-1.5000 F2400
G02 X45.8446 Y63.4968 I-1.9492 J-0.2942 F6000
G02 X45.5387 Y63.3152 I-0.2615 J0.0922
G02 X45.0273 Y63.3478 I-0.1623 J1.4810
G02 X44.8296 Y63.6823 I0.1819 J0.3332
G02 X44.7576 Y64.8234 I7.7721 J1.0634
G02 X44.9918 Y65.0764 I0.3089 J-0.0510
G02 X45.7301 Y65.2325 I0.8064 J-1.9894
G02 X45.8835 Y64.8798 I-0.1565 J-0.2778
G01 X45.8903 Y64.6349
G01 X45.8913 Y64.3071
G00 Z5.0000


(No. 48: Engraving 281)
G00 X45.2230 Y65.5875 Z5.0000
G00 Z0.5000
G01 Z0.0000 F2400
G01 Z-1.0000
G03 X44.6931 Y66.6584 I-0.5225 J0.4080 F6000
G03 X44.2951 Y66.0316 I0.0752 J-0.4875
G03 X45.0247 Y65.5128 I0.5666 J0.0243
G03 X45.2230 Y65.5875 I-0.0056 J0.3150
G01 Z-1.5000 F2400
G02 X44.4361 Y65.6916 I-0.3319 J0.5174 F6000
G02 X44.4768 Y66.5867 I0.5030 J0.4256
G02 X45.3507 Y66.0235 I0.2628 J-0.5517
G02 X45.2230 Y65.5875 I-0.7286 J-0.0233
G00 Z5.0000


(No. 49: Engraving 304)
G00 X45.0417 Y67.5115 Z5.0000
G00 Z0.5000
G01 Z0.0000 F2400
G01 Z-1.0000
G01 X45.1445 Y67.7793 F6000
G02 X48.2933 Y68.6996 I7.8315 J-20.9485
G02 X49.4052 Y68.8087 I1.3142 J-7.6765
G03 X46.8016 Y70.6550 I-14.9170 J-18.2766
G03 X44.4321 Y71.6369 I-6.3603 J-11.9994
G02 X42.7185 Y72.2909 I2.7294 J9.7231
G02 X41.4597 Y73.2775 I2.7718 J4.8328
G02 X38.1168 Y76.8135 I190.6186 J183.5578
G03 X36.7621 Y76.4875 I0.5835 J-5.4028
G01 X36.5530 Y76.3772
G01 X43.5636 Y68.6285
G03 X44.7109 Y67.5161 I8.3699 J7.4845
G03 X44.9588 Y67.4175 I0.2140 J0.1772
G03 X45.0417 Y67.5115 I-0.0512 J0.1287
G01 Z-1.5000 F2400
G02 X44.8136 Y67.4494 I-0.1331 J0.0389 F6000
G02 X43.5636 Y68.6285 I4.9246 J6.4726
G01 X36.5530 Y76.3772
G02 X37.5441 Y76.7057 I1.4654 J-2.7615
G01 X38.1168 Y76.8135
G03 X41.6946 Y73.0505 I72.2521 J65.1123
G03 X43.7280 Y71.8754 I3.3392 J3.4314
G02 X46.0081 Y71.0507 I-8.5345 J-27.1616
G02 X47.9790 Y69.8681 I-3.9270 J-8.7781
G01 X49.4052 Y68.8087
G03 X47.1582 Y68.4254 I0.2435 J-8.2058
G01 X46.5541 Y68.2417
G01 X45.1445 Y67.7793
G01 X45.0417 Y67.5115
G00 Z5.0000


(No. 50: Engraving 278)
G00 X43.2548 Y64.9393 Z5.0000
G00 Z0.5000
G01 Z0.0000 F2400
G01 Z-1.0000
G03 X43.9100 Y65.2548 I-0.8543 J2.6123 F6000
G03 X43.9312 Y65.5758 I-0.1522 J0.1713
G01 X43.8650 Y65.7011
G01 X43.6216 Y66.1529
G01 X43.6133 Y66.1602
G03 X43.3405 Y66.0856 I0.0217 J-0.6153
G03 X41.9981 Y65.3984 I2.8994 J-7.3183
G01 X41.9455 Y65.3535
G01 X41.9269 Y65.3224
G03 X42.5253 Y64.7785 I0.7296 J0.2016
G03 X43.2548 Y64.9393 I0.0399 J1.5539
G01 Z-1.5000 F2400
G02 X42.5832 Y64.7700 I-0.7863 J1.7017 F6000
G02 X41.9269 Y65.3224 I0.0746 J0.7547
G02 X42.1862 Y65.5199 I0.5262 J-0.4219
G02 X43.5377 Y66.1529 I3.8374 J-6.4341
G01 X43.5962 Y66.1625
G01 X43.6133 Y66.1602
G01 X43.6216 Y66.1529
G02 X43.9720 Y65.4743 I-2.8903 J-1.9222
G02 X43.8172 Y65.1905 I-0.2287 J-0.0594
G02 X43.2548 Y64.9393 I-2.2110 J4.1960
G00 Z5.0000


(No. 51: Engraving 1805)
G00 X41.9410 Y63.9645 Z5.0000
G00 Z0.5000
G01 Z0.0000 F2400
G01 Z-1.0000
G01 X41.9902 Y64.0159 F6000
G01 X42.0155 Y64.0784
G03 X41.7470 Y64.6562 I-1.0539 J-0.1384
G03 X41.1404 Y65.2436 I-1.0805 J-0.5089
G01 X41.0734 Y65.2354
G01 X40.8164 Y65.0189
G01 X40.7270 Y65.0910
G01 X40.6065 Y65.1605
G01 X40.4694 Y65.0576
G01 X40.3323 Y64.9546
G01 X40.3070 Y64.8921
G03 X40.3849 Y64.6094 I0.5144 J-0.0103
G01 X41.3258 Y63.4038
G01 X41.4093 Y63.3548
G03 X41.7432 Y63.4495 I0.0498 J0.4607
G01 X41.8723 Y63.5869
G01 X41.8595 Y63.7092
G01 X41.7819 Y63.8159
G01 X41.9410 Y63.9645
G01 Z-1.5000 F2400
G01 X41.7819 Y63.8159 F6000
G01 X41.8595 Y63.7092
G01 X41.8723 Y63.5869
G01 X41.7432 Y63.4495
G02 X41.4093 Y63.3548 I-0.3125 J0.4657
G01 X41.3258 Y63.4038
G01 X40.3849 Y64.6094
G02 X40.3070 Y64.8921 I0.3282 J0.2425
G01 X40.3323 Y64.9546
G01 X40.4694 Y65.0576
G01 X40.6065 Y65.1605
G01 X40.7270 Y65.0910
G01 X40.8164 Y65.0189
G01 X41.0734 Y65.2354
G01 X41.1404 Y65.2436
G02 X41.6289 Y64.8347 I-0.4067 J-0.9820
G02 X41.9902 Y64.2483 I-2.7678 J-2.1101
G01 X42.0158 Y64.1550
G01 X42.0155 Y64.0784
G01 X41.9902 Y64.0159
G01 X41.9410 Y63.9645
G00 Z5.0000


(No. 52: Engraving 1804)
G00 X39.2018 Y64.5201 Z5.0000
G00 Z0.5000
G01 Z0.0000 F2400
G01 Z-1.0000
G01 X41.1834 Y62.1509 F6000
G01 X41.4641 Y62.4210
G01 X39.2670 Y65.0527
G01 X38.9623 Y64.8198
G01 X39.2018 Y64.5201
G01 Z-1.5000 F2400
G01 X38.9623 Y64.8198 F6000
G01 X39.2670 Y65.0527
G01 X41.4641 Y62.4210
G01 X41.1834 Y62.1509
G01 X39.2018 Y64.5201
G00 Z5.0000


(No. 53: Engraving 249)
G00 X44.1229 Y60.7364 Z5.0000
G00 Z0.5000
G01 Z0.0000 F2400
G01 Z-1.0000
G01 X46.9924 Y60.8575 F6000
G01 X46.9520 Y61.2175
G01 X43.7669 Y61.0860
G01 X43.7663 Y60.7293
G01 X44.1229 Y60.7364
G01 Z-1.5000 F2400
G01 X43.7663 Y60.7293 F6000
G01 X43.7669 Y61.0860
G01 X46.9520 Y61.2175
G01 X46.9924 Y60.8575
G01 X44.1229 Y60.7364
G00 Z5.0000


(No. 54: Engraving 1795)
G00 X46.1027 Y62.2414 Z5.0000
G00 Z0.5000
G01 Z0.0000 F2400
G01 Z-1.0000
G01 X46.0831 Y62.4429 F6000
G01 X46.0731 Y62.5082
G01 X46.0412 Y62.5623
G03 X45.4631 Y62.6912 I-0.4943 J-0.8558
G03 X44.6864 Y62.5761 I-0.2361 J-1.0851
G01 X44.6545 Y62.5220
G01 X44.6688 Y62.2099
G01 X44.5650 Y62.1847
G01 X44.4455 Y62.1352
G01 X44.4439 Y61.9758
G01 X44.4422 Y61.8164
G01 X44.4741 Y61.7623
G03 X44.7267 Y61.6598 I0.2987 J0.3737
G01 X46.1487 Y61.6716
G01 X46.2320 Y61.7055
G03 X46.3512 Y62.0055 I-0.3117 J0.2975
G01 X46.3229 Y62.1785
G01 X46.2254 Y62.2382
G01 X46.1027 Y62.2414
G01 Z-1.5000 F2400
G01 X46.2254 Y62.2382 F6000
G01 X46.3229 Y62.1785
G01 X46.3512 Y62.0055
G02 X46.2320 Y61.7055 I-0.5204 J0.0331
G01 X46.1487 Y61.6716
G01 X44.7267 Y61.6598
G02 X44.4741 Y61.7623 I0.0068 J0.3794
G01 X44.4422 Y61.8164
G01 X44.4439 Y61.9758
G01 X44.4455 Y62.1352
G01 X44.5650 Y62.1847
G01 X44.6688 Y62.2099
G01 X44.6545 Y62.5220
G01 X44.6864 Y62.5761
G02 X45.2645 Y62.7050 I0.4943 J-0.8558
G02 X45.9016 Y62.6398 I-0.0097 J-3.2363
G01 X45.9850 Y62.6059
G01 X46.0412 Y62.5623
G01 X46.0731 Y62.5082
G01 X46.0831 Y62.4429
G01 X46.1027 Y62.2414
G00 Z5.0000


(No. 55: Engraving 1806)
G00 X46.5845 Y56.1584 Z5.0000
G00 Z0.5000
G01 Z0.0000 F2400
G01 Z-1.0000
G01 X48.4482 Y53.9301 F6000
G01 X48.7122 Y54.1841
G01 X46.6458 Y56.6593
G01 X46.3592 Y56.4403
G01 X46.5845 Y56.1584
G01 Z-1.5000 F2400
G01 X46.3592 Y56.4403 F6000
G01 X46.6458 Y56.6593
G01 X48.7122 Y54.1841
G01 X48.4482 Y53.9301
G01 X46.5845 Y56.1584
G00 Z5.0000


(No. 56: Engraving 173)
G00 X59.2813 Y52.1867 Z5.0000
G00 Z0.5000
G01 Z0.0000 F2400
G01 Z-1.0000
G02 X59.7562 Y53.2855 I0.8913 J0.2668 F6000
G02 X60.4526 Y53.3275 I0.4114 J-1.0286
G03 X60.5633 Y53.3726 I0.0170 J0.1166
G03 X60.5265 Y53.9063 I-1.2645 J0.1811
G02 X61.3795 Y54.8431 I0.7545 J0.1697
G03 X61.7916 Y54.9960 I0.0837 J0.4062
G03 X61.7268 Y55.5765 I-0.6027 J0.2266
G03 X60.6023 Y56.9811 I-5.3111 J-3.0994
G03 X59.7114 Y57.7956 I-4.4965 J-4.0241
G03 X58.8570 Y57.8403 I-0.4634 J-0.6676
G02 X57.7488 Y57.4768 I-2.1216 J4.5960
G02 X57.4623 Y57.6928 I-0.0350 J0.2515
G01 X57.4254 Y57.7435
G01 X57.3809 Y57.7766
G03 X56.9593 Y57.6870 I-0.0900 J-0.6131
G02 X56.4478 Y57.6182 I-0.3246 J0.4780
G02 X55.9539 Y57.9914 I2.0045 J3.1659
G03 X55.5923 Y57.8802 I-0.1404 J-0.1869
G03 X54.7384 Y56.3328 I25.2079 J-14.9199
G01 X58.5955 Y52.0077
G03 X59.2127 Y51.9139 I0.4808 J1.0862
G01 X59.2541 Y51.9462
G03 X59.2813 Y52.1867 I-0.3944 J0.1663
G01 Z-1.5000 F2400
G02 X59.2541 Y51.9462 I-0.3005 J-0.0879 F6000
G01 X59.2127 Y51.9139
G02 X58.5955 Y52.0077 I-0.1364 J1.1799
G01 X54.7384 Y56.3328
G01 X55.0832 Y56.9845
G01 X55.4611 Y57.6779
G02 X55.7509 Y58.0297 I0.7150 J-0.2938
G02 X56.0132 Y57.9472 I0.0626 J-0.2594
G03 X56.4478 Y57.6182 I1.2386 J1.1844
G03 X56.9593 Y57.6870 I0.1767 J0.6227
G02 X57.3263 Y57.7922 I0.3953 J-0.6856
G01 X57.3809 Y57.7766
G02 X57.5304 Y57.5526 I-0.2636 J-0.3378
G03 X57.8800 Y57.4999 I0.2097 J0.2053
G02 X59.1073 Y57.9146 I2302.4932 J-6812.7429
G02 X59.8224 Y57.7145 I0.1764 J-0.7473
G02 X61.5260 Y55.9144 I-7.1293 J-8.4536
G02 X61.8417 Y55.1799 I-1.0541 J-0.8882
G02 X61.5221 Y54.8530 I-0.3169 J-0.0099
G03 X60.8772 Y54.7282 I-0.1046 J-1.1889
G03 X60.5454 Y53.7883 I0.4467 J-0.6862
G02 X60.5633 Y53.3726 I-0.6159 J-0.2347
G02 X60.2359 Y53.3538 I-0.1805 J0.2845
G03 X59.2642 Y52.3231 I-0.1237 J-0.8568
G01 X59.2813 Y52.1867
G00 Z5.0000


(No. 57: Engraving 153)
G00 X55.2527 Y45.4664 Z5.0000
G00 Z0.5000
G01 Z0.0000 F2400
G01 Z-1.0000
G02 X56.3726 Y46.3789 I1.3463 J-0.5089 F6000
G03 X56.5954 Y46.4913 I-0.0096 J0.2961
G01 X56.5982 Y46.5196
G03 X56.4654 Y46.6836 I-0.3294 J-0.1309
G02 X55.6501 Y47.4371 I1.6363 J2.5883
G02 X55.5154 Y48.4909 I0.7650 J0.6333
G02 X56.3478 Y48.8964 I0.7402 J-0.4623
G03 X56.7056 Y48.9594 I0.0891 J0.5422
G03 X56.7442 Y49.4210 I-0.4815 J0.2726
G02 X57.1104 Y50.2360 I0.6553 J0.1953
G02 X57.8689 Y50.4141 I0.5568 J-0.6675
G01 X57.9224 Y50.4204
G01 X57.9655 Y50.4510
G03 X58.0501 Y51.0297 I-1.0898 J0.4549
G01 X58.0453 Y51.7251
G01 X54.4866 Y55.5629
G03 X53.9421 Y54.8194 I0.9298 J-1.2521
G03 X53.1270 Y52.5661 I14.0551 J-6.3579
G03 X53.0664 Y52.0470 I2.0750 J-0.5052
G02 X52.7166 Y51.4488 I-1.4047 J0.4200
G03 X52.6789 Y50.9660 I0.3370 J-0.2692
G02 X52.5020 Y50.5094 I-0.6598 J-0.0069
G03 X52.4884 Y50.0617 I0.5201 J-0.2398
G02 X52.2406 Y49.5661 I-0.5829 J-0.0182
G03 X52.0111 Y48.8293 I1.1193 J-0.7527
G02 X51.9851 Y48.4113 I-0.6341 J-0.1703
G01 X51.9747 Y48.4038
G01 X51.9616 Y48.4092
G02 X51.7623 Y48.8063 I1.3634 J0.9328
G01 X51.5205 Y49.3469
G01 X48.5726 Y52.7708
G02 X47.5929 Y53.7057 I4.5297 J5.7276
G01 X47.5345 Y53.7823
G01 X47.5018 Y53.8400
G01 X47.4960 Y53.8769
G01 X47.5037 Y53.8868
G01 X47.5186 Y53.8909
G01 X47.5710 Y53.8800
G01 X47.8991 Y53.7634
G02 X45.8300 Y56.2205 I35.8753 J32.3096
G02 X45.6878 Y56.6024 I0.3092 J0.3325
G02 X46.3451 Y57.0413 I0.8115 J-0.5037
G01 X46.3802 Y57.0284
G01 X46.4003 Y57.0013
G01 X46.4205 Y56.9733
G03 X46.8705 Y57.1044 I0.0811 J0.5595
G02 X47.6767 Y57.2415 I0.5286 J-0.6694
G03 X48.0248 Y57.4284 I0.0335 J0.3551
G02 X48.4355 Y57.5620 I0.4734 J-0.7569
G03 X49.4786 Y58.3240 I-2.0295 J3.8736
G02 X50.6572 Y59.2960 I5.0843 J-4.9640
G01 X51.0042 Y59.4902
G03 X46.5398 Y64.3467 I-109.0580 J-95.7722
G03 X46.3396 Y64.4779 I-0.2321 J-0.1360
G01 X46.3117 Y64.4671
G03 X46.2653 Y64.3297 I0.2035 J-0.1452
G03 X46.3052 Y63.3573 I3.1790 J-0.3565
G03 X46.4136 Y63.1363 I0.3110 J0.0154
G01 X46.4319 Y63.1324
G01 X46.4681 Y63.1249
G02 X46.6176 Y62.6906 I-0.3195 J-0.3529
G03 X46.9367 Y62.2669 I0.5099 J0.0519
G02 X47.1571 Y61.6725 I-0.4937 J-0.5211
G03 X47.3310 Y61.3743 I0.2631 J-0.0463
G01 X47.3780 Y61.3754
G01 X47.4252 Y61.3747
G02 X47.6602 Y60.9249 I-0.2989 J-0.4426
G02 X47.6420 Y60.5505 I-0.4407 J-0.1662
G02 X47.2278 Y60.4371 I-0.3381 J0.4217
G03 X43.6556 Y60.2555 I-0.1615 J-32.0374
G02 X43.2810 Y60.3083 I-0.1145 J0.5425
G02 X43.1904 Y60.5774 I0.2071 J0.2195
G02 X43.2679 Y61.2333 I1.3177 J0.1769
G01 X43.2985 Y61.2857
G01 X43.3323 Y61.3188
G01 X43.3685 Y61.3303
G01 X43.4047 Y61.3395
G03 X43.5534 Y61.8807 I-0.5060 J0.4301
G02 X43.8789 Y62.2392 I0.3124 J0.0434
G03 X44.0893 Y62.6819 I-0.2119 J0.3720
G02 X44.1995 Y63.0968 I0.5906 J0.0652
G01 X44.2333 Y63.1232
G01 X44.2695 Y63.1324
G01 X44.3043 Y63.1411
G03 X44.4265 Y63.5919 I-0.4086 J0.3527
G03 X44.1936 Y64.7550 I-2.3162 J0.1410
G03 X43.8857 Y64.7708 I-0.1640 J-0.1876
G03 X43.0055 Y64.3419 I0.5583 J-2.2638
G03 X42.8056 Y63.8999 I0.4923 J-0.4888
G02 X42.4906 Y63.5748 I-0.4825 J0.1525
G03 X42.3274 Y63.0884 I0.2766 J-0.3634
G02 X42.0472 Y62.4092 I-1.0538 J0.0373
G03 X42.1534 Y62.1044 I0.1663 J-0.1129
G01 X42.1801 Y62.0629
G02 X42.0633 Y61.7471 I-0.3772 J-0.0400
G03 X41.7000 Y60.6419 I1.0518 J-0.9580
G01 X41.7159 Y60.2676
G01 X41.7151 Y60.1712
G01 X41.7062 Y60.1339
G01 X41.6876 Y60.1548
G02 X41.3801 Y61.1341 I23.9883 J8.0688
G01 X37.4856 Y65.5651
G03 X38.2252 Y65.5641 I0.3713 J1.0933
G03 X38.6812 Y65.9022 I-0.9222 J1.7200
G02 X38.9851 Y65.8092 I0.0785 J-0.2864
G03 X39.4434 Y65.8027 I0.2316 J0.1645
G02 X39.9244 Y65.7847 I0.2334 J-0.1996
G03 X40.3632 Y65.9193 I0.1376 J0.3340
G02 X41.1162 Y66.1428 I0.5242 J-0.3857
G02 X41.4150 Y65.9354 I-10.5463 J-15.5166
G03 X41.9723 Y65.9755 I0.2215 J0.8145
G03 X44.0893 Y66.7937 I-7.0815 J21.4700
G03 X44.0066 Y67.2658 I-0.5888 J0.1402
G03 X43.8190 Y67.3671 I-0.2943 J-0.3207
G03 X37.3291 Y74.5386 I-920.7233 J-826.6854
G01 X35.7440 Y76.3041
G02 X34.8755 Y76.0891 I-1.0717 J2.4669
G03 X34.7234 Y75.8816 I0.0656 J-0.2076
G01 X34.7280 Y75.6564
G01 X38.1755 Y71.5746
G01 X38.0930 Y71.4921
G01 X38.0815 Y71.4872
G02 X37.4159 Y72.0913 I1.0542 J1.8302
G03 X34.1160 Y75.7465 I-280.2542 J-249.7000
G03 X33.1151 Y75.5813 I-0.2365 J-1.6817
G01 X32.8629 Y75.4216
G01 X35.2831 Y72.2862
G01 X35.1234 Y72.1265
G01 X32.3063 Y75.3861
G03 X31.5838 Y75.1351 I-0.0910 J-0.9035
G03 X31.7234 Y74.6034 I0.6248 J-0.1201
G02 X32.4636 Y73.3308 I-9.5558 J-6.4092
G02 X32.5234 Y73.1384 I-0.2725 J-0.1902
G01 X32.5178 Y73.1250
G01 X32.5050 Y73.1215
G02 X31.9549 Y73.6540 I1.1737 J1.7628
G03 X30.9220 Y74.8113 I-7.3816 J-5.5486
G03 X30.5346 Y75.0341 I-0.5427 J-0.4953
G01 X30.4851 Y75.0290
G01 X30.4458 Y75.0068
G03 X30.3940 Y74.6433 I0.3808 J-0.2397
G03 X36.7909 Y65.2813 I172.7593 J111.1770
G03 X42.4591 Y58.0912 I94.2143 J68.4437
G03 X46.6917 Y53.3114 I95.4592 J80.2647
G01 X53.1098 Y46.8241
G03 X54.8430 Y45.3410 I14.5624 J15.2639
G03 X55.2527 Y45.4664 I0.1717 J0.1710
G01 Z-1.5000 F2400
G02 X55.0350 Y45.2707 I-0.2619 J0.0723 F6000
G02 X54.6587 Y45.4740 I0.0969 J0.6294
G02 X53.1098 Y46.8241 I54.1493 J63.6824
G01 X46.6917 Y53.3114
G02 X39.2774 Y61.9610 I114.3544 J105.5241
G02 X32.8061 Y71.0052 I131.0741 J100.6232
G01 X30.3940 Y74.6433
G02 X30.4458 Y75.0068 I0.4326 J0.1237
G01 X30.4851 Y75.0290
G02 X30.9220 Y74.8113 I-0.0835 J-0.7149
G02 X31.9549 Y73.6540 I-6.3488 J-6.7058
G03 X32.4845 Y73.1282 I2.0492 J1.5343
G01 X32.5050 Y73.1215
G01 X32.5178 Y73.1250
G01 X32.5234 Y73.1384
G03 X32.0097 Y74.1341 I-3.2223 J-1.0319
G02 X31.5810 Y74.9103 I3.1924 J2.2696
G02 X31.7850 Y75.2822 I0.2415 J0.1094
G02 X32.3063 Y75.3861 I0.4316 J-0.8063
G01 X35.1234 Y72.1265
G01 X35.2831 Y72.2862
G01 X32.8629 Y75.4216
G02 X34.1160 Y75.7465 I1.0361 J-1.4172
G02 X37.6532 Y71.8331 I-329.8619 J-301.7156
G03 X38.0642 Y71.4894 I1.0750 J0.8679
G01 X38.0815 Y71.4872
G01 X38.0930 Y71.4921
G01 X38.1755 Y71.5746
G01 X34.7280 Y75.6564
G02 X34.7646 Y76.0073 I0.3994 J0.1357
G02 X35.0939 Y76.1146 I0.2710 J-0.2726
G03 X35.7440 Y76.3041 I-0.2684 J2.1310
G03 X42.2882 Y69.0790 I2703.2246 J2441.8695
G01 X43.8190 Y67.3671
G02 X44.0893 Y67.0203 I-0.0632 J-0.3280
G01 Y66.7937
G02 X41.9723 Y65.9755 I-9.1984 J20.6518
G02 X41.4583 Y65.9192 I-0.3558 J0.8734
G02 X41.2334 Y66.0784 I0.1897 J0.5062
G03 X40.4883 Y66.0287 I-0.3416 J-0.4883
G02 X40.1620 Y65.7716 I-0.9548 J0.8762
G02 X39.8118 Y65.8652 I-0.1014 J0.3227
G03 X39.4434 Y65.8027 I-0.1508 J-0.2281
G02 X38.9851 Y65.8092 I-0.2268 J0.1710
G03 X38.6812 Y65.9022 I-0.2139 J-0.1559
G02 X38.3825 Y65.6413 I-10.7662 J12.0213
G02 X37.8797 Y65.5171 I-0.4316 J0.6668
G01 X37.4856 Y65.5651
G01 X41.3801 Y61.1341
G03 X41.6876 Y60.1548 I7.1930 J1.7203
G01 X41.7062 Y60.1339
G02 X41.7079 Y60.9466 I10.6458 J0.3837
G02 X42.1204 Y61.8257 I1.3837 J-0.1129
G03 X42.1801 Y62.0629 I-0.1986 J0.1762
G03 X42.0310 Y62.2119 I-0.9278 J-0.7794
G02 X42.1434 Y62.5454 I0.3387 J0.0715
G03 X42.3211 Y63.2995 I-0.8472 J0.5976
G02 X42.6027 Y63.6317 I0.4054 J-0.0582
G03 X42.8394 Y64.1103 I-0.3182 J0.4552
G02 X43.5036 Y64.6265 I0.9741 J-0.5679
G02 X44.1015 Y64.8059 I0.5913 J-0.8844
G02 X44.2966 Y64.5106 I-0.1271 J-0.2961
G02 X44.3830 Y63.2616 I-2.2009 J-0.7798
G02 X44.3043 Y63.1411 I-0.1780 J0.0303
G01 X44.2695 Y63.1324
G01 X44.2333 Y63.1232
G03 X44.0846 Y62.5820 I0.5060 J-0.4301
G02 X43.7591 Y62.2235 I-0.3124 J-0.0434
G03 X43.5487 Y61.7808 I0.2119 J-0.3720
G02 X43.4047 Y61.3395 I-0.5043 J-0.0796
G01 X43.3685 Y61.3303
G01 X43.3323 Y61.3188
G03 X43.1883 Y60.7641 I0.6994 J-0.4776
G03 X43.2467 Y60.3421 I0.6069 J-0.1310
G03 X43.6556 Y60.2555 I0.2909 J0.3644
G02 X47.2278 Y60.4371 I3.4042 J-31.7264
G03 X47.6098 Y60.5177 I0.0618 J0.6528
G03 X47.6767 Y60.7615 I-0.1641 J0.1761
G03 X47.5145 Y61.3175 I-0.8119 J0.0648
G01 X47.4710 Y61.3549
G01 X47.4252 Y61.3747
G01 X47.3780 Y61.3754
G01 X47.3310 Y61.3743
G02 X47.1527 Y61.7616 I0.1907 J0.3224
G03 X46.8281 Y62.3248 I-0.5567 J0.0543
G02 X46.5979 Y62.9084 I0.4616 J0.5193
G03 X46.4681 Y63.1249 I-0.2749 J-0.0177
G01 X46.4319 Y63.1324
G01 X46.4136 Y63.1363
G02 X46.2671 Y63.6008 I0.6759 J0.4684
G02 X46.2755 Y64.3931 I2.4245 J0.3704
G01 X46.2907 Y64.4389
G01 X46.3117 Y64.4671
G01 X46.3396 Y64.4779
G02 X46.5398 Y64.3467 I-0.0914 J-0.3581
G02 X51.0042 Y59.4902 I-104.5936 J-100.6287
G03 X49.8289 Y58.6413 I2.3027 J-4.4263
G02 X48.6632 Y57.6794 I-5.0120 J4.8868
G02 X48.2406 Y57.5309 I-0.4601 J0.6336
G03 X47.9265 Y57.3171 I0.0926 J-0.4737
G02 X47.4955 Y57.2835 I-0.2428 J0.3328
G03 X46.7060 Y57.0128 I0.0241 J-1.3566
G02 X46.4205 Y56.9733 I-0.1787 J0.2398
G01 X46.4003 Y57.0013
G01 X46.3802 Y57.0284
G01 X46.3451 Y57.0413
G03 X45.6878 Y56.6024 I0.2084 J-1.0236
G03 X45.8300 Y56.2205 I0.5449 J-0.0146
G03 X47.8991 Y53.7634 I37.9444 J29.8525
G01 X47.5710 Y53.8800
G01 X47.5186 Y53.8909
G01 X47.5037 Y53.8868
G01 X47.4960 Y53.8769
G01 X47.5018 Y53.8400
G03 X47.9077 Y53.3837 I1.4721 J0.9009
G01 X48.5726 Y52.7708
G01 X51.5205 Y49.3469
G01 X51.7623 Y48.8063
G03 X51.9616 Y48.4092 I0.8034 J0.1546
G01 X51.9747 Y48.4038
G01 X51.9851 Y48.4113
G02 X52.0358 Y49.0664 I7.8847 J-0.2814
G02 X52.3968 Y49.7347 I1.0647 J-0.1435
G03 X52.4501 Y50.2410 I-0.4246 J0.3006
G02 X52.6386 Y50.7321 I0.7474 J-0.0053
G03 X52.6281 Y51.1092 I-0.3412 J0.1791
G02 X52.8825 Y51.6647 I0.7295 J0.0020
G03 X53.0671 Y52.2554 I-0.5669 J0.5014
G02 X54.0365 Y55.0182 I12.2155 J-2.7348
G02 X54.4866 Y55.5629 I1.0401 J-0.4011
G01 X58.0453 Y51.7251
G02 X58.0234 Y50.5921 I-5.7149 J-0.4561
G01 X57.9990 Y50.5077
G01 X57.9655 Y50.4510
G01 X57.9224 Y50.4204
G01 X57.8689 Y50.4141
G03 X57.1104 Y50.2360 I-0.1830 J-0.9250
G03 X56.7442 Y49.4210 I0.2890 J-0.6197
G02 X56.7471 Y49.0143 I-0.7301 J-0.2086
G02 X56.3478 Y48.8964 I-0.3009 J0.2844
G03 X55.5154 Y48.4909 I-0.0922 J-0.8678
G03 X55.6501 Y47.4371 I0.9477 J-0.4144
G03 X56.4654 Y46.6836 I2.4515 J1.8348
G02 X56.5982 Y46.5196 I-0.1252 J-0.2370
G01 X56.5954 Y46.4913
G02 X56.3726 Y46.3789 I-0.2325 J0.1837
G03 X55.2527 Y45.4664 I0.2391 J-1.4369
G00 Z5.0000


(No. 58: Engraving 107)
G00 X69.0472 Y33.3644 Z5.0000
G00 Z0.5000
G01 Z0.0000 F2400
G01 Z-1.0000
G02 X68.9893 Y37.2351 I53.1228 J2.7305 F6000
G02 X69.7123 Y41.2648 I14.4688 J-0.5164
G02 X70.7636 Y44.2494 I22.2432 J-6.1573
G02 X71.5034 Y45.0471 I2.1150 J-1.2195
G02 X72.9632 Y45.8609 I3.7853 J-5.0737
G02 X73.7862 Y45.8354 I0.3748 J-1.1911
G03 X78.7274 Y44.3914 I15.1030 J42.5061
G01 X79.1385 Y44.4044
G02 X76.7675 Y45.6267 I5.3185 J13.2273
G02 X72.8437 Y49.9162 I7.7303 J11.0106
G03 X71.9803 Y51.3378 I-15.8159 J-8.6326
G01 X71.9304 Y51.3982
G01 X71.9015 Y51.4193
G01 X71.8169
G03 X70.4637 Y48.1960 I20.9001 J-10.6697
G03 X69.5796 Y44.2768 I25.8857 J-7.8988
G01 X69.2667 Y42.3191
G01 X68.9958 Y42.0155
G01 X64.2563 Y43.3102
G01 X64.0884
G01 X64.0547 Y43.3026
G01 X64.0281 Y43.2800
G03 X64.0446 Y42.6324 I1.0178 J-0.2981
G03 X66.2475 Y37.2971 I20.3562 J5.2827
G03 X69.0472 Y33.3644 I18.2089 J9.9999
G01 Z-1.5000 F2400
G02 X65.9005 Y37.9234 I16.7417 J14.9210 F6000
G02 X64.0446 Y42.6324 I17.7967 J9.7342
G02 X64.0082 Y43.2431 I1.2189 J0.3790
G01 X64.0281 Y43.2800
G01 X64.0547 Y43.3026
G01 X64.0884 Y43.3102
G01 X64.2563
G01 X68.9958 Y42.0155
G01 X69.2667 Y42.3191
G02 X70.0703 Y46.7888 I50.3509 J-6.7454
G02 X71.8169 Y51.4193 I20.8121 J-5.2053
G01 X71.9015
G02 X72.1324 Y51.1160 I-0.7791 J-0.8328
G03 X73.4218 Y49.0230 I27.2881 J15.3671
G03 X77.5035 Y45.1859 I10.0754 J6.6280
G01 X77.8771 Y44.9982
G01 X79.1385 Y44.4044
G01 X78.7274 Y44.3914
G02 X74.3205 Y45.6505 I9.9496 J43.1650
G03 X73.4090 Y45.9165 I-1.5485 J-3.6117
G03 X72.4474 Y45.6301 I-0.0125 J-1.7154
G03 X70.9525 Y44.5368 I1.8026 J-4.0334
G03 X70.5677 Y43.7935 I1.6273 J-1.3137
G03 X69.0963 Y38.5670 I23.4392 J-9.4193
G03 X68.9877 Y35.6217 I19.8467 J-2.2062
G01 X69.0472 Y33.3644
G00 Z5.0000


(No. 59: Engraving 105)
G00 X71.5114 Y31.8289 Z5.0000
G00 Z0.5000
G01 Z0.0000 F2400
G01 Z-1.0000
G03 X70.4405 Y32.6148 I-2.9617 J-2.9133 F6000
G01 X70.3613 Y32.6336
G01 X70.3369 Y32.6280
G01 X70.3235 Y32.6119
G01 X70.3220 Y32.5866
G03 X70.9807 Y31.9406 I1.6435 J1.0170
G03 X72.3193 Y31.0595 I6.9845 J9.1541
G01 X72.3363 Y31.0589
G03 X71.5114 Y31.8289 I-5.5971 J-5.1698
G01 Z-1.5000 F2400
G01 X72.1360 Y31.2678 F6000
G01 X72.2896 Y31.1205
G01 X72.3363 Y31.0589
G01 X72.3193 Y31.0595
G02 X70.4850 Y32.3611 I4.4141 J8.1636
G02 X70.3220 Y32.5866 I0.2235 J0.3334
G01 X70.3235 Y32.6119
G01 X70.3369 Y32.6280
G01 X70.3613 Y32.6336
G02 X71.0734 Y32.1976 I-0.5299 J-1.6649
G01 X71.5114 Y31.8289
G00 Z5.0000


(No. 60: Engraving 106)
G00 X73.2368 Y33.1582 Z5.0000
G00 Z0.5000
G01 Z0.0000 F2400
G01 Z-1.0000
G01 X73.2420 Y33.1817 F6000
G03 X72.8370 Y33.5641 I-1.6114 J-1.3010
G03 X70.6695 Y35.1422 I-10.5299 J-12.1847
G03 X70.3873 Y35.2621 I-0.3341 J-0.3942
G01 X70.3683 Y35.2557
G01 X70.3626 Y35.2394
G03 X70.9866 Y34.6252 I1.7007 J1.1038
G03 X73.0330 Y33.2027 I13.1332 J16.7106
G01 X73.1531 Y33.1507
G01 X73.2207 Y33.1449
G01 X73.2368 Y33.1582
G01 Z-1.5000 F2400
G01 X73.2207 Y33.1449 F6000
G02 X72.8545 Y33.3046 I0.1740 J0.8986
G02 X70.6345 Y34.9222 I11.0040 J17.4346
G02 X70.3626 Y35.2394 I0.4438 J0.6556
G01 X70.3683 Y35.2557
G01 X70.3873 Y35.2621
G02 X71.3188 Y34.7261 I-1.1137 J-3.0127
G02 X73.2138 Y33.2247 I-8.4372 J-12.5961
G01 X73.2420 Y33.1817
G01 X73.2368 Y33.1582
G00 Z5.0000


(No. 61: Engraving 110)
G00 X72.1294 Y36.1490 Z5.0000
G00 Z0.5000
G01 Z0.0000 F2400
G01 Z-1.0000
G01 X73.3656 Y35.2782 F6000
G01 X70.8933 Y37.5245
G01 Y37.2721
G03 X71.2564 Y36.8381 I1.0220 J0.4861
G01 X71.6495 Y36.5070
G01 X72.1294 Y36.1490
G01 Z-1.5000 F2400
G02 X70.9908 Y37.1054 I3.3812 J5.1811 F6000
G01 X70.9185 Y37.2036
G01 X70.8933 Y37.2721
G01 Y37.5245
G01 X73.3656 Y35.2782
G01 X72.1294 Y36.1490
G00 Z5.0000


(No. 62: Engraving 111)
G00 X72.8093 Y38.3012 Z5.0000
G00 Z0.5000
G01 Z0.0000 F2400
G01 Z-1.0000
G01 X74.3545 Y37.2221 F6000
G03 X72.3756 Y39.0101 I-7.8031 J-6.6472
G03 X71.3518 Y39.6144 I-2.3951 J-2.8880
G01 X71.2868 Y39.6210
G01 X71.2699 Y39.6120
G01 X71.2641 Y39.5943
G03 X71.7180 Y39.1262 I1.3306 J0.8361
G01 X72.2094 Y38.7371
G01 X72.8093 Y38.3012
G01 Z-1.5000 F2400
G02 X71.3861 Y39.4261 I5.7135 J8.6919 F6000
G01 X71.2957 Y39.5293
G01 X71.2641 Y39.5943
G01 X71.2699 Y39.6120
G01 X71.2868 Y39.6210
G02 X71.9440 Y39.3031 I-0.2858 J-1.4290
G02 X73.9207 Y37.7170 I-6.5683 J-10.2107
G01 X74.3545 Y37.2221
G01 X72.8093 Y38.3012
G00 Z5.0000


(No. 63: Engraving 118)
G00 X74.8490 Y39.4355 Z5.0000
G00 Z0.5000
G01 Z0.0000 F2400
G01 Z-1.0000
G03 X72.5378 Y41.2495 I-14.4442 J-16.0236 F6000
G03 X72.1187 Y41.4451 I-0.6099 J-0.7600
G01 X72.0996 Y41.4371
G01 X72.0910 Y41.3993
G03 X72.4848 Y40.9475 I1.0263 J0.4968
G03 X74.8724 Y39.3628 I8.4475 J10.1368
G01 X74.9006 Y39.3619
G01 X74.8938 Y39.3855
G01 X74.8490 Y39.4355
G01 Z-1.5000 F2400
G01 X74.8938 Y39.3855 F6000
G01 X74.9006 Y39.3619
G02 X74.6109 Y39.4923 I0.1524 J0.7253
G02 X72.4848 Y40.9475 I8.8656 J15.2345
G02 X72.0910 Y41.3993 I0.6325 J0.9487
G01 X72.0996 Y41.4371
G01 X72.1187 Y41.4451
G02 X72.9426 Y40.9770 I-0.7121 J-2.2127
G02 X74.8490 Y39.4355 I-18.5298 J-24.8648
G00 Z5.0000


(No. 64: Engraving 121)
G00 X75.9615 Y40.8370 Z5.0000
G00 Z0.5000
G01 Z0.0000 F2400
G01 Z-1.0000
G01 Y40.9250 F6000
G01 X72.8013 Y43.4574
G01 X72.6553 Y43.3114
G01 X72.6472 Y43.2915
G03 X72.9322 Y42.9229 I0.7471 J0.2833
G03 X75.8084 Y40.8430 I10.4451 J11.4157
G01 X75.9225 Y40.8089
G01 X75.9516 Y40.8150
G01 X75.9615 Y40.8370
G01 Z-1.5000 F2400
G01 X75.9516 Y40.8150 F6000
G01 X75.9225 Y40.8089
G02 X75.0615 Y41.2900 I1.0847 J2.9521
G02 X72.9322 Y42.9229 I9.9143 J15.1332
G02 X72.6472 Y43.2915 I0.4621 J0.6518
G01 X72.6553 Y43.3114
G01 X72.8013 Y43.4574
G01 X75.9615 Y40.9250
G01 Y40.8370
G00 Z5.0000


(No. 65: Engraving 126)
G00 X77.4315 Y41.5788 Z5.0000
G00 Z0.5000
G01 Z0.0000 F2400
G01 Z-1.0000
G01 X77.4449 Y41.5936 F6000
G01 Y41.7128
G01 X74.2087 Y44.2879
G01 X74.0848 Y44.1640
G01 X74.0770 Y44.1476
G01 X74.0790 Y44.1242
G03 X74.5447 Y43.6055 I1.3617 J0.7541
G03 X77.2415 Y41.6546 I13.5067 J15.8319
G01 X77.3922 Y41.5847
G01 X77.4315 Y41.5788
G01 Z-1.5000 F2400
G02 X77.0040 Y41.7961 I0.4719 J1.4578 F6000
G02 X74.5447 Y43.6055 I16.2885 J24.7141
G02 X74.0790 Y44.1242 I0.8960 J1.2728
G01 X74.0770 Y44.1476
G01 X74.0848 Y44.1640
G01 X74.2087 Y44.2879
G01 X77.4449 Y41.7128
G01 Y41.5936
G01 X77.4315 Y41.5788
G00 Z5.0000


(No. 66: Engraving 127)
G00 X79.1168 Y42.4938 Z5.0000
G00 Z0.5000
G01 Z0.0000 F2400
G01 Z-1.0000
G03 X77.1404 Y44.0111 I-9.8291 J-10.7573 F6000
G03 X76.5923 Y44.1841 I-0.5752 J-0.8675
G01 X76.5628 Y44.1697
G01 X76.4647 Y44.0716
G03 X79.3259 Y42.1194 I21.8154 J28.9003
G01 X79.4331 Y42.0654
G01 X79.5033 Y42.0400
G01 X79.5358 Y42.0433
G01 X79.5302 Y42.0754
G03 X79.1168 Y42.4938 I-1.9776 J-1.5408
G01 Z-1.5000 F2400
G02 X79.5302 Y42.0754 I-0.9790 J-1.3809 F6000
G01 X79.5358 Y42.0433
G01 X79.5033 Y42.0400
G02 X79.0022 Y42.3126 I0.9052 J2.2613
G02 X76.4647 Y44.0716 I44.3995 J66.7583
G01 X76.5628 Y44.1697
G01 X76.5923 Y44.1841
G02 X77.4093 Y43.8423 I-0.1689 J-1.5511
G02 X79.1168 Y42.4938 I-10.9065 J-15.5649
G00 Z5.0000


(No. 67: Engraving 113)
G00 X79.1394 Y39.0949 Z5.0000
G00 Z0.5000
G01 Z0.0000 F2400
G01 Z-1.0000
G02 X79.3323 Y39.5367 I0.8728 J-0.1181 F6000
G02 X79.9664 Y39.5500 I0.3366 J-0.9296
G03 X82.7378 Y39.9580 I0.6659 J5.0929
G03 X83.1831 Y40.2722 I-0.4974 J1.1779
G01 X83.1848 Y40.2870
G01 X83.1786 Y40.3005
G03 X82.2957 Y40.3972 I-0.6899 J-2.2189
G03 X79.6940 Y40.4518 I-1.8133 J-24.3978
G03 X78.8440 Y40.2864 I-0.0840 J-1.8357
G03 X78.6939 Y39.7304 I0.2351 J-0.3617
G03 X79.0313 Y39.0842 I2.9931 J1.1516
G01 X79.0738 Y39.0490
G01 X79.0920 Y39.0462
G01 X79.1087 Y39.0530
G01 X79.1394 Y39.0949
G01 Z-1.5000 F2400
G01 X79.1087 Y39.0530 F6000
G01 X79.0920 Y39.0462
G01 X79.0738 Y39.0490
G02 X78.6496 Y39.9655 I1.3706 J1.1908
G02 X78.9569 Y40.3387 I0.3990 J-0.0155
G02 X80.5725 Y40.4510 I1.1718 J-5.1773
G02 X82.9466 Y40.3597 I0.2529 J-24.3221
G02 X83.1786 Y40.3005 I0.0399 J-0.3278
G01 X83.1848 Y40.2870
G01 X83.1831 Y40.2722
G02 X81.9214 Y39.6647 I-1.7637 J2.0495
G02 X79.6193 Y39.5945 I-1.3127 J5.2691
G03 X79.2022 Y39.2867 I-0.0756 J-0.3341
G01 X79.1394 Y39.0949
G00 Z5.0000


(No. 68: Engraving 141)
G00 X82.0438 Y45.6822 Z5.0000
G00 Z0.5000
G01 Z0.0000 F2400
G01 Z-1.0000
G03 X83.5805 Y45.5138 I1.3278 J5.0205 F6000
G03 X84.0718 Y45.9549 I-0.1360 J0.6457
G03 X84.2419 Y46.4485 I-1.4433 J0.7734
G01 X84.2359 Y46.4656
G03 X82.0239 Y46.9805 I-3.0555 J-8.1172
G01 X81.9452 Y46.9785
G01 X81.9053 Y46.9653
G03 X81.7253 Y45.9132 I1.6856 J-0.8297
G03 X82.0438 Y45.6822 I0.3545 J0.1536
G01 Z-1.5000 F2400
G02 X81.7253 Y45.9132 I0.0081 J0.3462 F6000
G02 X81.9053 Y46.9653 I1.8656 J0.2223
G02 X82.2767 Y46.9554 I0.1644 J-0.8093
G02 X84.1698 Y46.5016 I-1.0269 J-8.4591
G01 X84.2359 Y46.4656
G01 X84.2419 Y46.4485
G02 X83.8681 Y45.6439 I-1.7755 J0.3356
G02 X83.2992 Y45.5024 I-0.4592 J0.6322
G02 X82.0438 Y45.6822 I0.2807 J6.4343
G00 Z5.0000


(No. 69: Engraving 143)
G00 X79.4374 Y46.3398 Z5.0000
G00 Z0.5000
G01 Z0.0000 F2400
G01 Z-1.0000
G01 X80.0026 Y46.2350 F6000
G03 X80.2446 Y46.3517 I-0.0595 J0.4324
G03 X80.9943 Y47.1648 I-1.8441 J2.4527
G03 X80.8984 Y47.5686 I-0.3602 J0.1278
G03 X79.2299 Y48.1566 I-1.2996 J-1.0263
G01 X79.2173 Y48.1476
G03 X79.0732 Y46.6491 I8.5602 J-1.5792
G03 X79.3083 Y46.3688 I0.2764 J-0.0069
G01 X79.4374 Y46.3398
G01 Z-1.5000 F2400
G02 X79.1150 Y46.4953 I-0.0260 J0.3579 F6000
G02 X79.1108 Y47.2613 I1.6096 J0.3920
G01 X79.2173 Y48.1476
G01 X79.2299 Y48.1566
G02 X80.9954 Y47.4172 I0.3507 J-1.6400
G02 X80.8971 Y47.0127 I-0.3099 J-0.1389
G02 X80.1021 Y46.2609 I-2.3714 J1.7111
G01 X80.0459 Y46.2387
G01 X80.0026 Y46.2350
G01 X79.4374 Y46.3398
G00 Z5.0000


(No. 70: Engraving 137)
G00 X85.1079 Y44.8096 Z5.0000
G00 Z0.5000
G01 Z0.0000 F2400
G01 Z-1.0000
G01 X86.3916 Y44.7679 F6000
G01 X88.0584 Y44.7307
G03 X87.8210 Y46.1929 I-4.0674 J0.0899
G03 X87.3439 Y46.3736 I-0.3959 J-0.3252
G02 X85.1404 Y46.8236 I0.7453 J9.2708
G02 X80.6460 Y48.9572 I3.6697 J13.5302
G02 X78.3372 Y51.2346 I6.8191 J9.2221
G03 X78.0144 Y51.4577 I-0.3748 J-0.1973
G03 X77.6262 Y51.1544 I0.2924 J-0.7744
G03 X77.5865 Y50.7961 I0.1348 J-0.1963
G02 X78.4533 Y49.8878 I-22.7874 J-22.6134
G02 X78.5441 Y49.0127 I-0.4817 J-0.4923
G02 X78.2087 Y48.6155 I-0.9000 J0.4197
G02 X77.7508 Y48.7387 I-0.0885 J0.5832
G03 X76.5624 Y49.4398 I-8.0605 J-12.3066
G03 X76.0787 Y49.3856 I-0.2096 J-0.3147
G03 X75.4281 Y48.5714 I3.4961 J-3.4602
G03 X75.5433 Y48.1757 I0.2909 J-0.1299
G03 X75.9612 Y47.7746 I1.7817 J1.4381
G01 X76.0339 Y47.7463
G01 X76.1033
G03 X76.6027 Y48.1037 I-2.1266 J3.4988
G02 X77.1173 Y48.0223 I0.1977 J-0.4175
G02 X77.9986 Y47.3239 I-2.6095 J-4.1981
G02 X78.0052 Y46.8083 I-0.2115 J-0.2606
G03 X77.7552 Y46.5096 I0.5934 J-0.7504
G03 X77.9445 Y46.1668 I0.2681 J-0.0756
G03 X81.3833 Y45.1469 I4.8507 J10.0477
G03 X85.1079 Y44.8096 I5.0237 J34.7473
G01 Z-1.5000 F2400
G02 X80.1355 Y45.3848 I0.5746 J26.7488 F6000
G02 X77.8702 Y46.2177 I1.6724 J8.0457
G02 X77.7853 Y46.5617 I0.0845 J0.2034
G03 X78.1092 Y46.9824 I-0.9344 J1.0546
G03 X77.9354 Y47.3904 I-0.4076 J0.0673
G03 X76.9620 Y48.1066 I-3.4250 J-3.6354
G03 X76.4830 Y48.0232 I-0.1837 J-0.3622
G02 X76.1033 Y47.7463 I-0.8245 J0.7319
G01 X76.0339
G02 X75.5433 Y48.1757 I0.7789 J1.3849
G02 X75.3970 Y48.4704 I0.2051 J0.2856
G02 X75.7797 Y49.0472 I1.4339 J-0.5362
G02 X76.2010 Y49.4707 I1.0787 J-0.6516
G02 X76.6610 Y49.3920 I0.1432 J-0.5465
G03 X77.9284 Y48.6490 I29.5047 J48.8791
G03 X78.3289 Y48.7132 I0.1688 J0.2285
G03 X78.6593 Y49.3585 I-0.6850 J0.7581
G03 X78.2770 Y50.0937 I-1.0454 J-0.0766
G01 X78.0442 Y50.3254
G02 X77.5542 Y50.8476 I0.9710 J1.4019
G02 X77.6262 Y51.1544 I0.2163 J0.1111
G02 X77.9719 Y51.4505 I0.8400 J-0.6310
G02 X78.3372 Y51.2346 I-0.0066 J-0.4282
G03 X83.7828 Y47.2824 I9.4332 J7.2700
G03 X86.9290 Y46.4061 I5.5104 J13.6967
G02 X87.5953 Y46.3510 I-2.0039 J-28.3023
G02 X87.9098 Y45.9681 I-0.1326 J-0.4296
G02 X88.0584 Y44.7307 I-4.1962 J-1.1316
G01 X86.3916 Y44.7679
G01 X85.1079 Y44.8096
G00 Z5.0000


(No. 71: Engraving 140)
G00 X85.8438 Y45.3488 Z5.0000
G00 Z0.5000
G01 Z0.0000 F2400
G01 Z-1.0000
G01 X86.5063 Y45.3347 F6000
G01 X86.8871 Y45.2660
G01 X86.9111 Y45.2732
G01 X86.9097 Y45.3015
G01 X86.8848 Y45.3486
G01 X86.8380 Y45.4126
G03 X86.1068 Y45.9403 I-15.2307 J-20.3318
G03 X85.2811 Y46.1231 I-0.6161 J-0.8266
G03 X85.0323 Y45.7454 I0.1346 J-0.3595
G01 X85.0559 Y45.6777
G03 X85.6264 Y45.3997 I0.7143 J0.7415
G01 X85.8438 Y45.3488
G01 Z-1.5000 F2400
G02 X85.1072 Y45.6155 I0.1531 J1.5737 F6000
G01 X85.0559 Y45.6777
G01 X85.0323 Y45.7454
G02 X85.6512 Y46.1321 I0.4436 J-0.0214
G02 X86.4670 Y45.6687 I-0.5079 J-1.8441
G01 X86.8380 Y45.4126
G01 X86.8848 Y45.3486
G01 X86.9097 Y45.3015
G01 X86.9111 Y45.2732
G01 X86.8871 Y45.2660
G01 X86.5063 Y45.3347
G01 X85.8438 Y45.3488
G00 Z5.0000


(No. 72: Engraving 152)
G00 X86.0503 Y47.6532 Z5.0000
G00 Z0.5000
G01 Z0.0000 F2400
G01 Z-1.0000
G01 X85.8470 Y47.8398 F6000
G01 X82.6999 Y50.0465
G03 X83.3598 Y49.3399 I1.7018 J0.9278
G03 X85.8039 Y47.4665 I43.8290 J54.6500
G01 X86.0288
G01 X86.1094 Y47.4793
G01 X86.1310 Y47.4948
G01 X86.1401 Y47.5160
G03 X86.0503 Y47.6532 I-0.2040 J-0.0356
G01 Z-1.5000 F2400
G02 X86.1401 Y47.5160 I-0.0715 J-0.1447 F6000
G01 X86.1310 Y47.4948
G01 X86.1094 Y47.4793
G01 X86.0288 Y47.4665
G01 X85.8039
G02 X83.0114 Y49.6410 I22.3488 J31.5803
G02 X82.6999 Y50.0465 I0.7966 J0.9343
G01 X85.8470 Y47.8398
G01 X86.0503 Y47.6532
G00 Z5.0000


(No. 73: Engraving 150)
G00 X88.2176 Y47.6242 Z5.0000
G00 Z0.5000
G01 Z0.0000 F2400
G01 Z-1.0000
G01 X88.1017 Y47.8103 F6000
G01 X83.2789 Y51.1902
G01 X82.5422 Y51.5817
G01 X87.9871 Y47.4412
G01 X88.1603 Y47.4396
G01 X88.2184 Y47.4537
G01 X88.2370 Y47.4706
G01 X88.2485 Y47.4932
G01 X88.2489 Y47.5520
G01 X88.2176 Y47.6242
G01 Z-1.5000 F2400
G01 X88.2489 Y47.5520 F6000
G01 X88.2485 Y47.4932
G01 X88.2370 Y47.4706
G01 X88.2184 Y47.4537
G01 X88.1603 Y47.4396
G01 X87.9871 Y47.4412
G01 X82.5422 Y51.5817
G01 X83.2789 Y51.1902
G01 X88.1017 Y47.8103
G01 X88.2176 Y47.6242
G00 Z5.0000


(No. 74: Engraving 155)
G00 X89.1996 Y48.4125 Z5.0000
G00 Z0.5000
G01 Z0.0000 F2400
G01 Z-1.0000
G01 X89.2982 Y48.5782 F6000
G01 X83.2753 Y52.8281
G01 X82.9556
G01 X87.4859 Y49.4282
G01 X88.2935 Y48.8375
G03 X89.0976 Y48.3948 I1.4739 J1.7256
G01 X89.1634 Y48.3913
G01 X89.1854 Y48.3987
G01 X89.1996 Y48.4125
G01 Z-1.5000 F2400
G01 X89.1854 Y48.3987 F6000
G01 X89.1634 Y48.3913
G02 X88.6148 Y48.6213 I0.1201 J1.0556
G02 X82.9556 Y52.8281 I87.6209 J123.7804
G01 X83.2753
G01 X89.2982 Y48.5782
G01 X89.1996 Y48.4125
G00 Z5.0000


(No. 75: Engraving 163)
G00 X90.1700 Y49.4528 Z5.0000
G00 Z0.5000
G01 Z0.0000 F2400
G01 Z-1.0000
G01 X90.1658 Y49.6122 F6000
G01 X85.0379 Y53.1183
G01 X84.8239
G01 X89.9427 Y49.2934
G01 X90.0584
G01 X90.1030 Y49.3060
G01 X90.1389 Y49.3402
G01 X90.1625 Y49.3909
G01 X90.1700 Y49.4528
G01 Z-1.5000 F2400
G01 X90.1625 Y49.3909 F6000
G01 X90.1389 Y49.3402
G01 X90.1030 Y49.3060
G01 X90.0584 Y49.2934
G01 X89.9427
G01 X84.8239 Y53.1183
G01 X85.0379
G01 X90.1658 Y49.6122
G01 X90.1700 Y49.4528
G00 Z5.0000


(No. 76: Engraving 176)
G00 X93.8147 Y51.4811 Z5.0000
G00 Z0.5000
G01 Z0.0000 F2400
G01 Z-1.0000
G03 X94.0242 Y52.0509 I-2.2909 J1.1655 F6000
G03 X93.8020 Y52.4491 I-0.4399 J0.0157
G03 X90.1468 Y55.0233 I-98.7477 J-136.3333
G02 X83.5453 Y59.7034 I359.5587 J514.1601
G03 X82.5192 Y60.1552 I-1.7582 J-2.6026
G03 X79.6302 Y59.4470 I-0.5878 J-3.8491
G03 X76.3318 Y56.7748 I24.1617 J-33.1951
G02 X74.4918 Y54.6419 I-21.8675 J17.0040
G03 X73.0148 Y52.8760 I19.2371 J-17.5914
G03 X72.8289 Y52.4334 I0.4623 J-0.4544
G03 X73.1056 Y51.7820 I1.9447 J0.4416
G03 X73.3002 Y51.5695 I0.3054 J0.0842
G03 X73.5621 Y51.7399 I-0.0308 J0.3339
G01 X73.9341 Y52.1780
G01 X74.5697 Y52.9510
G01 X78.0573 Y56.5094
G02 X80.3443 Y57.9419 I11.5323 J-15.8697
G02 X82.1664 Y58.3228 I1.6591 J-3.3878
G02 X83.5194 Y58.1049 I0.2189 J-2.9498
G01 X83.9172 Y57.8920
G01 X87.1952 Y55.5293
G01 X93.1942 Y51.3732
G01 X93.4123 Y51.1998
G01 X93.4699 Y51.1649
G01 X93.5262 Y51.1538
G01 X93.5818 Y51.1672
G03 X93.8147 Y51.4811 I-0.3736 J0.5206
G01 Z-1.5000 F2400
G02 X93.5818 Y51.1672 I-0.6065 J0.2067 F6000
G01 X93.5262 Y51.1538
G01 X93.4699 Y51.1649
G01 X93.4123 Y51.1998
G01 X93.1942 Y51.3732
G01 X87.1952 Y55.5293
G01 X83.9172 Y57.8920
G03 X82.5712 Y58.3106 I-1.4042 J-2.1417
G03 X80.6657 Y58.0923 I-0.4301 J-4.6698
G03 X78.0573 Y56.5094 I7.5151 J-15.3249
G01 X74.5697 Y52.9510
G01 X73.9341 Y52.1780
G01 X73.5621 Y51.7399
G02 X73.3002 Y51.5695 I-0.2927 J0.1635
G02 X73.1056 Y51.7820 I0.1108 J0.2968
G02 X72.8367 Y52.3688 I2.1294 J1.3307
G02 X73.0148 Y52.8760 I0.6620 J0.0525
G02 X75.4813 Y55.7341 I33.3734 J-26.3072
G03 X76.3318 Y56.7748 I-13.4638 J11.8715
G02 X79.6302 Y59.4470 I27.4602 J-30.5229
G02 X82.5192 Y60.1552 I2.2950 J-3.1156
G02 X83.5453 Y59.7034 I-0.7321 J-3.0543
G03 X93.3646 Y52.7708 I584.0045 J816.7535
G02 X93.9714 Y52.2760 I-0.6999 J-1.4778
G02 X93.9603 Y51.8278 I-0.4069 J-0.2142
G01 X93.8797 Y51.6284
G01 X93.8147 Y51.4811
G00 Z5.0000


(No. 77: Engraving 186)
G00 X94.2964 Y53.9570 Z5.0000
G00 Z0.5000
G01 Z0.0000 F2400
G01 Z-1.0000
G01 X94.2909 Y54.3116 F6000
G01 X83.4324 Y61.8751
G01 X93.8232 Y53.6025
G01 X94.0626
G01 X94.1551 Y53.6305
G01 X94.2301 Y53.7066
G01 X94.2797 Y53.8194
G01 X94.2964 Y53.9570
G01 Z-1.5000 F2400
G01 X94.2797 Y53.8194 F6000
G01 X94.2301 Y53.7066
G01 X94.1551 Y53.6305
G01 X94.0626 Y53.6025
G01 X93.8232
G01 X83.4324 Y61.8751
G01 X94.2909 Y54.3116
G01 X94.2964 Y53.9570
G00 Z5.0000


(No. 78: Engraving 199)
G00 X94.0253 Y57.4644 Z5.0000
G00 Z0.5000
G01 Z0.0000 F2400
G01 Z-1.0000
G01 X94.0165 Y57.7779 F6000
G01 X86.2503 Y63.3686
G01 X85.2258 Y63.6307
G01 X93.5977 Y57.1508
G01 X93.8159
G01 X93.8999 Y57.1756
G01 X93.9674 Y57.2429
G01 X94.0115 Y57.3426
G01 X94.0253 Y57.4644
G01 Z-1.5000 F2400
G01 X94.0115 Y57.3426 F6000
G01 X93.9674 Y57.2429
G01 X93.8999 Y57.1756
G01 X93.8159 Y57.1508
G01 X93.5977
G01 X85.2258 Y63.6307
G01 X86.2503 Y63.3686
G01 X94.0165 Y57.7779
G01 X94.0253 Y57.4644
G00 Z5.0000


(No. 79: Engraving 220)
G00 X94.3205 Y61.1311 Z5.0000
G00 Z0.5000
G01 Z0.0000 F2400
G01 Z-1.0000
G01 Y61.5039 F6000
G01 X88.4179 Y65.6887
G01 X87.4789 Y66.0474
G01 X93.4237 Y61.4392
G01 X93.8721 Y61.0988
G03 X94.2048 Y60.9423 I0.3497 J0.3117
G01 X94.2549 Y60.9572
G01 X94.2911 Y60.9937
G01 X94.3131 Y61.0517
G01 X94.3205 Y61.1311
G01 Z-1.5000 F2400
G01 X94.3131 Y61.0517 F6000
G01 X94.2911 Y60.9937
G01 X94.2549 Y60.9572
G01 X94.2048 Y60.9423
G02 X93.8721 Y61.0988 I0.0698 J0.5804
G01 X93.4237 Y61.4392
G01 X87.4789 Y66.0474
G01 X88.4179 Y65.6887
G01 X94.3205 Y61.5039
G01 Y61.1311
G00 Z5.0000


(No. 80: Engraving 240)
G00 X94.2160 Y64.6403 Z5.0000
G00 Z0.5000
G01 Z0.0000 F2400
G01 Z-1.0000
G01 X94.2112 Y64.8591 F6000
G01 X89.7585 Y68.0669
G01 X88.9577 Y68.3585
G01 X93.4917 Y64.8591
G03 X93.8445 Y64.4404 I0.4900 J0.0550
G03 X94.1384 Y64.4804 I0.1046 J0.3315
G01 X94.1960 Y64.5470
G01 X94.2113 Y64.5904
G01 X94.2160 Y64.6403
G01 Z-1.5000 F2400
G01 X94.2113 Y64.5904 F6000
G01 X94.1960 Y64.5470
G01 X94.1384 Y64.4804
G02 X93.5889 Y64.6403 I-0.1987 J0.3414
G01 X93.4917 Y64.8591
G01 X88.9577 Y68.3585
G01 X89.7585 Y68.0669
G01 X94.2112 Y64.8591
G01 X94.2160 Y64.6403
G00 Z5.0000


(No. 81: Engraving 273)
G00 X96.2488 Y66.1691 Z5.0000
G00 Z0.5000
G01 Z0.0000 F2400
G01 Z-1.0000
G01 X96.7366 Y63.7988 F6000
G01 X96.9445 Y63.1914
G01 X97.2074 Y69.4322
G03 X97.3299 Y69.8333 I-0.4926 J0.3697
G03 X97.0438 Y70.0620 I-0.3475 J-0.1414
G02 X95.6225 Y70.7714 I1.0703 J3.9228
G03 X95.2369 Y70.7395 I-0.1749 J-0.2318
G03 X94.6977 Y70.1675 I1.6125 J-2.0600
G03 X94.7719 Y69.6458 I0.5617 J-0.1862
G02 X96.2488 Y66.1691 I-19.4165 J-10.3003
G01 Z-1.5000 F2400
G03 X94.7719 Y69.6458 I-18.5626 J-5.8335 F6000
G02 X94.6743 Y70.1102 I0.4672 J0.3407
G02 X95.2369 Y70.7395 I1.7823 J-1.0273
G02 X95.6225 Y70.7714 I0.2108 J-0.2010
G03 X97.1403 Y70.0255 I2.6070 J3.3877
G02 X97.3118 Y69.7043 I-0.0372 J-0.2262
G01 X97.2074 Y69.4322
G01 X96.9445 Y63.1914
G01 X96.7366 Y63.7988
G01 X96.2488 Y66.1691
G00 Z5.0000


(No. 82: Engraving 348)
G00 X92.4316 Y71.8271 Z5.0000
G00 Z0.5000
G01 Z0.0000 F2400
G01 Z-1.0000
G01 X92.5185 Y72.0523 F6000
G02 X95.4745 Y75.6336 I58.6197 J-45.3746
G02 X96.8254 Y76.7398 I3.3090 J-2.6631
G02 X99.8527 Y75.4596 I0.9006 J-2.0897
G02 X99.8401 Y74.2019 I-1.8328 J-0.6106
G02 X98.5021 Y73.2459 I-1.7629 J1.0530
G02 X97.2592 Y73.9192 I-0.0413 J1.4075
G01 X97.2578 Y73.9532
G01 X97.2696 Y73.9784
G01 X97.2943 Y73.9938
G02 X97.7949 Y73.7805 I-0.1003 J-0.9294
G03 X99.0207 Y75.4849 I0.4688 J0.9559
G03 X97.1046 Y75.8226 I-1.1273 J-0.7914
G03 X95.7077 Y74.2950 I1.9252 J-3.1628
G03 X96.1461 Y72.6818 I1.4240 J-0.4792
G03 X98.3440 Y71.7941 I2.3512 J2.6564
G03 X99.0420 Y71.8242 I0.2682 J1.8878
G03 X99.3880 Y72.1603 I-0.2401 J0.5933
G02 X100.9249 Y74.8646 I13.7676 J-6.0355
G03 X101.3348 Y75.6500 I-2.1755 J1.6353
G03 X101.1624 Y76.2958 I-0.6308 J0.1774
G01 X100.9428 Y76.5749
G01 X97.0280 Y79.2019
G01 X96.7536 Y78.9000
G01 X91.6625 Y72.4726
G03 X91.9168 Y71.9157 I0.9256 J0.0862
G03 X92.2227 Y71.6085 I0.9279 J0.6179
G01 X92.2487 Y71.6018
G01 X92.2928 Y71.6196
G03 X92.4316 Y71.8271 I-0.3533 J0.3864
G01 Z-1.5000 F2400
G02 X92.2928 Y71.6196 I-0.4290 J0.1368 F6000
G01 X92.2487 Y71.6018
G02 X91.6682 Y72.3526 I0.9410 J1.3274
G01 X91.6625 Y72.4726
G01 X96.7536 Y78.9000
G01 X97.0280 Y79.2019
G01 X100.9428 Y76.5749
G02 X101.3396 Y75.9871 I-1.0787 J-1.1559
G02 X101.2554 Y75.4385 I-0.8053 J-0.1573
G02 X100.3570 Y73.9968 I-13.1214 J7.1761
G03 X99.3880 Y72.1603 I14.7789 J-8.9723
G02 X98.8316 Y71.7878 I-0.5463 J0.2142
G02 X96.1461 Y72.6818 I-0.2798 J3.6399
G02 X95.9859 Y74.7828 I0.9714 J1.1306
G02 X97.4931 Y75.9966 I2.7893 J-1.9207
G02 X99.0207 Y75.4849 I0.4224 J-1.2751
G02 X97.7066 Y73.8329 I-0.7554 J-0.7478
G03 X97.3318 Y73.9986 I-0.4908 J-0.6035
G01 X97.2943 Y73.9938
G01 X97.2696 Y73.9784
G01 X97.2578 Y73.9532
G03 X97.6492 Y73.5042 I0.7155 J0.2285
G03 X99.1641 Y73.5126 I0.7522 J0.9465
G03 X99.8401 Y74.2019 I-0.9387 J1.5969
G03 X98.6310 Y76.7379 I-1.9111 J0.6451
G03 X96.0588 Y76.2185 I-0.9059 J-2.1423
G03 X93.7506 Y73.5840 I18.3319 J-18.3896
G01 X92.5185 Y72.0523
G01 X92.4316 Y71.8271
G00 Z5.0000


(No. 83: Engraving 355)
G00 X90.8776 Y73.4129 Z5.0000
G00 Z0.5000
G01 Z0.0000 F2400
G01 Z-1.0000
G03 X95.3092 Y79.0290 I-354.8335 J284.5499 F6000
G03 X95.8360 Y79.8766 I-2.6017 J2.2045
G03 X95.6876 Y80.2756 I-0.2928 J0.1181
G03 X94.9546 Y80.4317 I-0.5554 J-0.8087
G03 X92.4161 Y77.3463 I76.2150 J-65.2923
G03 X92.0861 Y76.8182 I1.1295 J-1.0728
G03 X92.1942 Y76.5596 I0.3060 J-0.0241
G02 X92.0534 Y76.0367 I-0.7151 J-0.0879
G02 X90.9621 Y74.9525 I-2.4378 J1.3626
G02 X90.6043 Y74.9595 I-0.1654 J0.6966
G03 X90.1985 Y74.1664 I0.0343 J-0.5179
G03 X90.8776 Y73.4129 I1.9821 J1.1035
G01 Z-1.5000 F2400
G02 X90.1378 Y74.3299 I1.0093 J1.5712 F6000
G02 X90.8097 Y74.9256 I0.4835 J0.1314
G03 X91.3383 Y75.1926 I-0.1359 J0.9256
G03 X92.2080 Y76.4230 I-1.5910 J2.0472
G03 X92.0885 Y76.7182 I-0.4142 J0.0042
G02 X92.2140 Y77.0685 I0.4790 J0.0260
G02 X93.8041 Y79.0439 I28.5565 J-21.3584
G01 X94.9546 Y80.4317
G02 X95.7946 Y80.1765 I0.1915 J-0.8798
G02 X95.7738 Y79.7269 I-0.3119 J-0.2109
G02 X93.9020 Y77.2259 I-17.4947 J11.1424
G01 X92.4855 Y75.4356
G01 X90.8776 Y73.4129
G00 Z5.0000


(No. 84: Engraving 366)
G00 X89.3450 Y74.6202 Z5.0000
G00 Z0.5000
G01 Z0.0000 F2400
G01 Z-1.0000
G03 X90.0468 Y75.5205 I-18.0886 J14.8241 F6000
G01 X86.4905 Y78.4284
G01 X83.7414 Y75.2298
G03 X88.8693 Y74.3060 I26.9670 J134.9988
G03 X89.2351 Y74.4978 I0.0319 J0.3839
G01 X89.3450 Y74.6202
G01 Z-1.5000 F2400
G02 X89.0034 Y74.3117 I-0.9299 J0.6864 F6000
G01 X88.9766 Y74.3054
G01 X88.8693 Y74.3060
G02 X83.7414 Y75.2298 I21.8390 J135.9226
G01 X86.4905 Y78.4284
G01 X90.0468 Y75.5205
G02 X89.3450 Y74.6202 I-17.5033 J12.9205
G00 Z5.0000


(No. 85: Engraving 375)
G00 X90.9103 Y75.5933 Z5.0000
G00 Z0.5000
G01 Z0.0000 F2400
G01 Z-1.0000
G01 X91.5047 Y76.2501 F6000
G01 X88.4188 Y78.8487
G03 X88.0323 Y79.8990 I-1.1932 J0.1572
G03 X87.5479 Y80.3085 I-1.8261 J-1.6688
G03 X87.2857 Y80.2257 I-0.0792 J-0.2055
G03 X86.6330 Y79.3603 I2.7703 J-2.7682
G01 X86.6233 Y79.3273
G01 X86.6168 Y79.2140
G01 X90.9103 Y75.5933
G01 Z-1.5000 F2400
G01 X86.6168 Y79.2140 F6000
G02 X86.7486 Y79.5547 I0.4412 J0.0253
G02 X87.3766 Y80.2983 I3.6376 J-2.4358
G02 X87.6491 Y80.2475 I0.1039 J-0.1988
G02 X88.4090 Y79.2777 I-1.0954 J-1.6409
G01 X88.4188 Y79.1983
G01 Y78.8487
G01 X91.5047 Y76.2501
G01 X90.9103 Y75.5933
G00 Z5.0000


(No. 86: Engraving 393)
G00 X91.5724 Y77.2175 Z5.0000
G00 Z0.5000
G01 Z0.0000 F2400
G01 Z-1.0000
G01 X94.1853 Y80.3982 F6000
G01 X94.1850 Y80.7020
G01 X90.9037 Y83.4050
G01 X90.6714 Y83.4659
G01 X88.4188 Y80.8198
G03 X88.7195 Y80.2180 I0.6525 J-0.0500
G02 X89.0616 Y79.4456 I-1.9578 J-1.3291
G03 X89.9736 Y78.3908 I3.5102 J2.1132
G01 X90.2236 Y78.1792
G01 X91.3239 Y77.2782
G01 X91.5724 Y77.2175
G01 Z-1.5000 F2400
G01 X91.3239 Y77.2782 F6000
G02 X89.5524 Y78.7892 I10.1205 J13.6587
G02 X89.0196 Y79.5717 I1.1582 J1.3612
G03 X88.5709 Y80.3632 I-1.2954 J-0.2115
G02 X88.4188 Y80.8198 I0.3276 J0.3627
G01 X90.6714 Y83.4659
G01 X90.9037 Y83.4050
G01 X94.1850 Y80.7020
G01 X94.1853 Y80.3982
G01 X91.5724 Y77.2175
G00 Z5.0000


(No. 87: Engraving 1762)
G00 X95.1164 Y81.3207 Z5.0000
G00 Z0.5000
G01 Z0.0000 F2400
G01 Z-1.0000
G01 X95.2982 Y81.3196 F6000
G02 X97.9638 Y84.1884 I54.4455 J-47.9169
G01 X94.8123 Y87.0676
G01 X94.7410 Y87.0585
G03 X93.2126 Y85.3993 I15.4932 J-15.8054
G01 X92.6164 Y84.7435
G01 X92.0896 Y84.1765
G01 X95.1164 Y81.3207
G01 Z-1.5000 F2400
G01 X92.0896 Y84.1765 F6000
G02 X94.4665 Y86.7966 I2178.6412 J-1974.0226
G02 X94.7410 Y87.0585 I0.7805 J-0.5436
G01 X94.8123 Y87.0676
G01 X97.9638 Y84.1884
G03 X95.2982 Y81.3196 I51.7799 J-50.7857
G01 X95.1164 Y81.3207
G00 Z5.0000


(No. 88: Engraving 493)
G00 X98.7804 Y85.3144 Z5.0000
G00 Z0.5000
G01 Z0.0000 F2400
G01 Z-1.0000
G02 X105.5739 Y93.4130 I311.2220 J-254.1683 F6000
G03 X105.3335 Y93.8754 I-0.7054 J-0.0731
G03 X104.9775 Y93.8501 I-0.1611 J-0.2516
G01 X98.1842 Y85.7476
G03 X98.6088 Y85.3202 I1.0977 J0.6658
G03 X98.7804 Y85.3144 I0.0946 J0.2579
G01 Z-1.5000 F2400
G02 X98.4500 Y85.4356 I-0.0756 J0.3049 F6000
G01 X98.3692 Y85.5224
G01 X98.1842 Y85.7476
G01 X104.9775 Y93.8501
G02 X105.4657 Y93.6949 I0.1953 J-0.2311
G01 X105.5739 Y93.4130
G03 X98.7804 Y85.3144 I304.4285 J-262.2670
G00 Z5.0000


(No. 89: Engraving 498)
G00 X97.3621 Y86.5585 Z5.0000
G00 Z0.5000
G01 Z0.0000 F2400
G01 Z-1.0000
G03 X104.2391 Y94.7224 I-3855.1445 J3254.4291 F6000
G03 X103.3652 Y95.4337 I-4.4496 J-4.5748
G03 X102.9121 Y95.3375 I-0.1734 J-0.2984
G03 X101.5996 Y93.8567 I14.4203 J-14.1039
G01 X96.1802 Y87.3729
G03 X97.1822 Y86.5992 I5.4742 J6.0539
G01 X97.2603 Y86.5650
G01 X97.3621 Y86.5585
G01 Z-1.5000 F2400
G02 X97.0448 Y86.6873 I0.0188 J0.5016 F6000
G02 X96.1802 Y87.3729 I8.8113 J12.0003
G01 X101.5996 Y93.8567
G02 X102.9121 Y95.3375 I15.7328 J-12.6231
G02 X103.3652 Y95.4337 I0.2757 J-0.1838
G02 X104.2391 Y94.7224 I-7.5208 J-10.1335
G02 X97.3621 Y86.5585 I-5173.7642 J4351.2355
G00 Z5.0000


(No. 90: Engraving 511)
G00 X95.3614 Y88.1804 Z5.0000
G00 Z0.5000
G01 Z0.0000 F2400
G01 Z-1.0000
G03 X101.5694 Y95.5939 I-272.6969 J234.6587 F6000
G03 X102.0803 Y96.3621 I-2.5765 J2.2675
G03 X101.9689 Y96.7064 I-0.2031 J0.1245
G03 X101.4418 Y96.8300 I-0.4081 J-0.5544
G01 X99.1521 Y94.0369
G03 X98.1497 Y92.8656 I11.4597 J-10.8216
G01 X97.5533 Y92.1392
G03 X96.1800 Y90.5230 I26.4928 J-23.9030
G01 X94.9388 Y89.0397
G03 X94.7775 Y88.6702 I0.2482 J-0.3283
G03 X95.2459 Y88.1804 I0.8721 J0.3652
G01 X95.3614
G01 Z-1.5000 F2400
G02 X95.0006 Y88.3478 I-0.0449 J0.3757 F6000
G02 X94.7722 Y88.7352 I0.2922 J0.4333
G02 X94.9388 Y89.0397 I0.5599 J-0.1086
G01 X96.1800 Y90.5230
G03 X98.1497 Y92.8656 I-109.1207 J93.7495
G01 X98.7478 Y93.5920
G01 X99.0539 Y93.9468
G01 X99.1521 Y94.0369
G01 X101.4418 Y96.8300
G02 X102.1038 Y96.5621 I0.1304 J-0.6296
G02 X101.9071 Y96.0483 I-0.7278 J-0.0160
G02 X100.4022 Y94.1852 I-18.3771 J13.3045
G01 X95.3614 Y88.1804
G00 Z5.0000


(No. 91: Engraving 512)
G00 X93.8022 Y88.5981 Z5.0000
G00 Z0.5000
G01 Z0.0000 F2400
G01 Z-1.0000
G03 X94.0496 Y88.9130 I-0.2327 J0.4375 F6000
G03 X93.8205 Y89.2416 I-0.5118 J-0.1128
G01 X93.4776 Y89.5319
G02 X100.4675 Y97.8211 I1420.4332 J-1190.6852
G03 X100.1600 Y98.0571 I-0.3803 J-0.1773
G03 X99.6225 Y97.6409 I0.2462 J-0.8733
G01 X92.9238 Y89.5876
G01 X93.2965 Y89.0642
G03 X93.6878 Y88.5788 I1.0726 J0.4644
G01 X93.7165 Y88.5697
G01 X93.7443 Y88.5703
G01 X93.8022 Y88.5981
G01 Z-1.5000 F2400
G01 X93.7443 Y88.5703 F6000
G02 X93.5433 Y88.7227 I0.0036 J0.2135
G01 X93.2965 Y89.0642
G01 X92.9238 Y89.5876
G01 X99.6225 Y97.6409
G02 X100.0520 Y98.0341 I1.0762 J-0.7445
