(Project starwars)
(Created by Estlcam version 11 build 11.233)
(Machining time about 00:19:52 hours)

(Required tools:)
(Endmill 1)
G21
G90
G94
M03 S12000
G00 Z5.0000


(No. 1: Part 1)
G00 X42.1159 Y42.1159
G00 Z0.5000
G01 Z0.0000 F1200 S12000
G01 Z-0.2500
G03 X285.5422 Y107.3418 I102.8841 J102.8841
G03 X107.3418 Y285.5422 I-140.5422 J37.6582
G03 X42.1159 Y42.1159 I37.6582 J-140.5422
G01 Z-0.5000
G03 X285.5422 Y107.3418 I102.8841 J102.8841
G03 X107.3418 Y285.5422 I-140.5422 J37.6582
G03 X42.1159 Y42.1159 I37.6582 J-140.5422
G01 Z-0.7500
G03 X285.5422 Y107.3418 I102.8841 J102.8841
G03 X107.3418 Y285.5422 I-140.5422 J37.6582
G03 X42.1159 Y42.1159 I37.6582 J-140.5422
G01 Z-1.0000
G03 X285.5422 Y107.3418 I102.8841 J102.8841
G03 X107.3418 Y285.5422 I-140.5422 J37.6582
G03 X42.1159 Y42.1159 I37.6582 J-140.5422
G01 Z-1.2500
G03 X285.5422 Y107.3418 I102.8841 J102.8841
G03 X107.3418 Y285.5422 I-140.5422 J37.6582
G03 X42.1159 Y42.1159 I37.6582 J-140.5422
G01 Z-1.5000
G03 X285.5422 Y107.3418 I102.8841 J102.8841
G03 X107.3418 Y285.5422 I-140.5422 J37.6582
G03 X42.1159 Y42.1159 I37.6582 J-140.5422
G01 Z-1.7500
G03 X285.5422 Y107.3418 I102.8841 J102.8841
G03 X107.3418 Y285.5422 I-140.5422 J37.6582
G03 X42.1159 Y42.1159 I37.6582 J-140.5422
G01 Z-2.0000
G03 X285.5422 Y107.3418 I102.8841 J102.8841
G03 X107.3418 Y285.5422 I-140.5422 J37.6582
G03 X42.1159 Y42.1159 I37.6582 J-140.5422
G01 Z-2.2500
G03 X285.5422 Y107.3418 I102.8841 J102.8841
G03 X107.3418 Y285.5422 I-140.5422 J37.6582
G03 X42.1159 Y42.1159 I37.6582 J-140.5422
G01 Z-2.5000
G03 X285.5422 Y107.3418 I102.8841 J102.8841
G03 X107.3418 Y285.5422 I-140.5422 J37.6582
G03 X42.1159 Y42.1159 I37.6582 J-140.5422
G01 Z-2.7500
G03 X285.5422 Y107.3418 I102.8841 J102.8841
G03 X107.3418 Y285.5422 I-140.5422 J37.6582
G03 X42.1159 Y42.1159 I37.6582 J-140.5422
G01 Z-3.0000
G03 X285.5422 Y107.3418 I102.8841 J102.8841
G03 X107.3418 Y285.5422 I-140.5422 J37.6582
G03 X42.1159 Y42.1159 I37.6582 J-140.5422
G01 Z-3.2500
G03 X285.5422 Y107.3418 I102.8841 J102.8841
G03 X107.3418 Y285.5422 I-140.5422 J37.6582
G03 X42.1159 Y42.1159 I37.6582 J-140.5422
G01 Z-3.5000
G03 X285.5422 Y107.3418 I102.8841 J102.8841
G03 X107.3418 Y285.5422 I-140.5422 J37.6582
G03 X42.1159 Y42.1159 I37.6582 J-140.5422
G01 Z-3.7500
G03 X285.5422 Y107.3418 I102.8841 J102.8841
G03 X107.3418 Y285.5422 I-140.5422 J37.6582
G03 X42.1159 Y42.1159 I37.6582 J-140.5422
G01 Z-4.0000
G03 X285.5422 Y107.3418 I102.8841 J102.8841
G03 X107.3418 Y285.5422 I-140.5422 J37.6582
G03 X42.1159 Y42.1159 I37.6582 J-140.5422
G01 Z-4.2500
G03 X285.5422 Y107.3418 I102.8841 J102.8841
G03 X107.3418 Y285.5422 I-140.5422 J37.6582
G03 X42.1159 Y42.1159 I37.6582 J-140.5422
G01 Z-4.5000
G03 X285.5422 Y107.3418 I102.8841 J102.8841
G03 X107.3418 Y285.5422 I-140.5422 J37.6582
G03 X42.1159 Y42.1159 I37.6582 J-140.5422
G01 Z-4.7500
G03 X285.5422 Y107.3418 I102.8841 J102.8841
G03 X107.3418 Y285.5422 I-140.5422 J37.6582
G03 X42.1159 Y42.1159 I37.6582 J-140.5422
G01 Z-5.0000
G03 X285.5422 Y107.3418 I102.8841 J102.8841
G03 X107.3418 Y285.5422 I-140.5422 J37.6582
G03 X42.1159 Y42.1159 I37.6582 J-140.5422
G01 Z-5.2500
G03 X285.5422 Y107.3418 I102.8841 J102.8841
G03 X107.3418 Y285.5422 I-140.5422 J37.6582
G03 X42.1159 Y42.1159 I37.6582 J-140.5422
G01 Z-5.5000
G03 X285.5422 Y107.3418 I102.8841 J102.8841
G03 X107.3418 Y285.5422 I-140.5422 J37.6582
G03 X42.1159 Y42.1159 I37.6582 J-140.5422
G01 Z-5.7500
G03 X285.5422 Y107.3418 I102.8841 J102.8841
G03 X107.3418 Y285.5422 I-140.5422 J37.6582
G03 X42.1159 Y42.1159 I37.6582 J-140.5422
G01 Z-6.0000
G03 X285.5422 Y107.3418 I102.8841 J102.8841
G03 X107.3418 Y285.5422 I-140.5422 J37.6582
G03 X42.1159 Y42.1159 I37.6582 J-140.5422
G01 Z-6.2500
G03 X285.5422 Y107.3418 I102.8841 J102.8841
G03 X107.3418 Y285.5422 I-140.5422 J37.6582
G03 X42.1159 Y42.1159 I37.6582 J-140.5422
G01 Z-6.5000
G03 X285.5422 Y107.3418 I102.8841 J102.8841
G03 X107.3418 Y285.5422 I-140.5422 J37.6582
G03 X42.1159 Y42.1159 I37.6582 J-140.5422
G00 Z5.0000
G00 X0.0000 Y0.0000

M05
M30
